!!!!SEGMENT: s-uu--vok-mus-i-hs-22-2_forster-kaspar--repleta-est-malis-anima-nostra.krn
!!!cenid: 16xx:1706
!!!COM: Förster, Kaspar
!!!COM-rismID: pe30006147
!!!CDT: ~1616-1673/02/02
!!!CNT: German
!!!OTL: Repleta est malis anima nostra
!!!PDT: 1667
!!!AGN:
!!!SMS-siglum: S-Uu
!!!SMS-shelfmark: Vok. mus. i hs. 22:2
!!!SMS-shelfwork: W
!!!SMS-variant: Organo. S-Uu Vok. mus. i hs. 22:2: ex 1
!!!SMS-altvar: Organo. S-Uu Vok. mus. i hs. 22:2: ex 2
!!!NIFC-rismSourceID: 190008737
!!!NIFC-rismChildID: 190008737
!!!NIFC-islandoraID: none
!!!URL-pdf-islandora:
!!!URL-scan: https://www2.musik.uu.se/duben/presentationSource1.php?Select_Dnr=857 @EN{Scan on Academica} @PL{Skany w zewnętrznej bibliotece cyfrowej}
!!!ONB-nifc: UWAGA: poszczególne partie dostępne po kliknięciu w „browse part”. Informacje nt stron tytułowych w opisie na stronie lub na RISM.
!!!AIN: 1 alto 1 bass 1 organ 1 tenor 2 violn
!!!key: B-
**kern	**fba	**dynam	**kern	**dynam	**kern	**kern	**text	**kern	**text	**kern	**text
*part6	*part6	*part6	*part5	*part5	*part4	*part3	*part3	*part2	*part2	*part1	*part1
*staff6	*	*	*staff5	*	*staff4	*staff3	*staff3	*staff2	*staff2	*staff1	*staff1
*I"Organo./.	*	*	*I"Violino II	*	*I"Violino 1.	*I"Baſsus./.	*	*I"Tenor./.	*	*I"Altus	*
*I'org	*	*	*I'vl 2	*	*I'vl 1	*I'B	*	*I'T	*	*I'A	*
*Iorgan	*	*	*Ivioln	*	*Ivioln	*Ibass	*	*Itenor	*	*Ialto	*
*ICklav	*	*	*ICstr	*	*ICstr	*ICvox	*	*ICvox	*	*ICvox	*
*IGcont	*	*	*	*	*	*	*	*	*	*	*
*>[A,B,A]	*	*>[A,B,A]	*>[A,B,A]	*>[A,B,A]	*>[A,B,A]	*>[A,B,A]	*>[A,B,A]	*>[A,B,A]	*>[A,B,A]	*>[A,B,A]	*>[A,B,A]
*>A	*	*>A	*>A	*>A	*>A	*>A	*>A	*>A	*>A	*>A	*>A
*clefF4	*	*	*clefG2	*	*clefG2	*clefF4	*	*clefC4	*	*clefC3	*
*k[b-]	*	*	*k[b-]	*	*k[b-]	*k[b-]	*	*k[b-]	*	*k[b-]	*
*B-:	*	*	*B-:	*	*B-:	*B-:	*	*B-:	*	*B-:	*
*M2/1	*	*	*M2/1	*	*M2/1	*M2/1	*	*M2/1	*	*M2/1	*
*met(c)	*	*	*met(c)	*	*met(c)	*met(c)	*	*met(c)	*	*met(c|)	*
=1-	=1-	=1-	=1-	=1-	=1-	=1-	=1-	=1-	=1-	=1-	=1-
*	*	*	*all\right	*	*all\right	*	*	*	*	*	*
!LO:TX:b:t=adagio	!	!	!	!	!	!	!	!	!	!	!
!LO:TX:b:rj:t=Sinfonia.	!	!	!LO:TX:b:t=Sinfonia	!	!	!LO:TX:a:t=Sinfonia\nRepleta\nest\ntacet	!	!LO:TX:a:t=Sinfonia\nAlto Solo\nRepleta est\ntacet	!	!LO:TX:a:t=Sinfonia\ntacet	!
2D/	-	.	4r	.	4r	0ryy	.	0ryy	.	0ryy	.
!	!	!	!LO:TX:a:t=adagio	!	!LO:TX:b:t=adagio	!	!	!	!	!	!
.	.	.	4dd\	.	4ff\	.	.	.	.	.	.
2A\	#	.	4.cc#X\	.	4.ee\	.	.	.	.	.	.
!	!	!	!LO:TX:t=P:problem:kreska pseudotaktowa	!	!	!	!	!	!	!	!
.	.	.	8cc#\	.	8aa\	.	.	.	.	.	.
2B-\	7	.	4.dd\	.	4aa\	.	.	.	.	.	.
.	6	.	.	.	4gg\	.	.	.	.	.	.
.	.	.	8dd\	.	.	.	.	.	.	.	.
!LO:TX:b:t=allegro	!	!	!LO:TX:a:t=allegro	!	!	!	!	!	!	!	!
4.A\	# 5	.	4.cc#X\	.	8aa\L	.	.	.	.	.	.
!	!	!	!	!	!LO:TX:b:t=allegro	!	!	!	!	!	!
.	.	.	.	.	8ee\J	.	.	.	.	.	.
.	x 6	.	.	.	4.ff\	.	.	.	.	.	.
8AA/	.	.	8cc#\	.	.	.	.	.	.	.	.
=2-	=2-	=2-	=2-	=2-	=2-	=2-	=2-	=2-	=2-	=2-	=2-
4.BB-/	.	.	4.dd\	.	.	0ryy	.	0ryy	.	0ryy	.
.	.	.	.	.	8ff\	.	.	.	.	.	.
.	.	.	.	.	4.gg\	.	.	.	.	.	.
8GG/	6	.	16ee\LL	.	.	.	.	.	.	.	.
.	.	.	16dd\JJ	.	.	.	.	.	.	.	.
!LO:TX:t=P:problem:kreska pseudotaktowa	!	!	!	!	!	!	!	!	!	!	!
2AA/	3	.	8cc#X\	.	.	.	.	.	.	.	.
.	4	.	4dd\	.	8ff\	.	.	.	.	.	.
.	.	.	.	.	8.ee\L	.	.	.	.	.	.
!	!	!	!LO:TX:t=P:problem:kreska pseudotaktowa	!	!	!	!	!	!	!	!
.	3	.	8cc#X\	.	.	.	.	.	.	.	.
!	!	!	!	!	!LO:TX:t=P:problem:kreska pseudotaktowa	!	!	!	!	!	!
.	.	.	.	.	16ee\Jk	.	.	.	.	.	.
4.D/	5	.	4.dd\	.	8ff\L	.	.	.	.	.	.
.	.	.	.	.	8aa\J	.	.	.	.	.	.
.	6 #	.	.	.	4.bb-\	.	.	.	.	.	.
8D/	.	.	8ff#X\	.	.	.	.	.	.	.	.
4.E-X\	.	.	4.gg\	.	.	.	.	.	.	.	.
.	7	.	.	.	8bb-\	.	.	.	.	.	.
.	6 5	.	.	.	4.ccc\	.	.	.	.	.	.
!	!	!	!LO:TX:t=P:problem:kreska pseudotaktowa	!	!	!	!	!	!	!	!
8C/	5 3	.	8ee\	.	.	.	.	.	.	.	.
=3-	=3-	=3-	=3-	=3-	=3-	=3-	=3-	=3-	=3-	=3-	=3-
2D/	.	.	8ff#X\	.	.	0ryy	.	0ryy	.	0ryy	.
.	.	.	4gg\	.	8bb-\	.	.	.	.	.	.
.	.	.	.	.	8.aa\L	.	.	.	.	.	.
!	!	!	!LO:TX:a:t=P:problem:# above	!	!	!	!	!	!	!	!
.	.	.	8ff#X\	.	.	.	.	.	.	.	.
.	.	.	.	.	16aa\Jk	.	.	.	.	.	.
4GG/	.	.	4gg\	.	8bb-\L	.	.	.	.	.	.
.	.	.	.	.	8aa\J	.	.	.	.	.	.
!	!	!	!LO:TX:t=P:problem:kreska pseudotaktowa	!	!	!	!	!	!	!	!
4AA/	6	.	4r	.	8cc\L	.	.	.	.	.	.
.	.	.	.	.	16ff\L	.	.	.	.	.	.
.	.	.	.	.	16ee\JJ	.	.	.	.	.	.
4BB-/	.	.	8r	.	4dd\	.	.	.	.	.	.
.	.	.	8dd\	.	.	.	.	.	.	.	.
8E-X\L	6	.	8g/L	.	4r	.	.	.	.	.	.
!LO:N:acc=#	!	!	!	!	!	!	!	!	!	!	!
8En\J	.	.	16ccny/L	.	.	.	.	.	.	.	.
.	.	.	16b-/JJ	.	.	.	.	.	.	.	.
4F\	.	.	4a/	.	8r	.	.	.	.	.	.
.	.	.	.	.	8ff\	.	.	.	.	.	.
!	!	!	!LO:TX:t=P:problem:kreska pseudotaktowa	!	!LO:N:acc=#	!	!	!	!	!	!
4G\	#	.	4r	.	8bn\L	.	.	.	.	.	.
.	.	.	.	.	16gg\L	.	.	.	.	.	.
.	.	.	.	.	16ff\JJ	.	.	.	.	.	.
=4-	=4-	=4-	=4-	=4-	=4-	=4-	=4-	=4-	=4-	=4-	=4-
2C/	.	.	8r	.	4ee\	0ryy	.	0ryy	.	0ryy	.
.	.	.	8cc\	.	.	.	.	.	.	.	.
.	.	.	8g/L	.	4r	.	.	.	.	.	.
.	.	.	16cc/L	.	.	.	.	.	.	.	.
.	.	.	16b-/JJ	.	.	.	.	.	.	.	.
2F\	.	.	4.a/	.	8r	.	.	.	.	.	.
.	.	.	.	.	8ff\	.	.	.	.	.	.
.	.	.	.	.	8cc\L	.	.	.	.	.	.
!	!	!	!LO:SIC:v:t=custos b	!	!	!	!	!	!	!	!
.	.	.	8a/	.	16ff\L	.	.	.	.	.	.
.	.	.	.	.	16ee\JJ	.	.	.	.	.	.
!	!	!	!LO:LB:g=original	!	!	!	!	!	!	!	!
4BB-/	.	.	8b-/L	.	8dd\L	.	.	.	.	.	.
.	.	.	8b-/	.	8dd\	.	.	.	.	.	.
!LO:SIC:v:t=custos D	!	!	!	!	!	!	!	!	!	!	!
4C/	.	.	8a/	.	8cc\	.	.	.	.	.	.
.	.	.	8g/J	.	8b-y\J	.	.	.	.	.	.
!LO:LB:g=original	!	!	!	!	!	!	!	!	!	!	!
4D/	.	.	8f/L	.	8a/L	.	.	.	.	.	.
.	.	.	8g/	.	8b-/	.	.	.	.	.	.
!LO:TX:t=P:problem:kreska pseudotaktowa	!	!	!	!	!	!	!	!	!	!	!
4AA/	6	.	8a/	.	8cc/	.	.	.	.	.	.
!	!	!	!LO:TX:t=P:problem:kreska pseudotaktowa	!	!LO:SIC:v:t=custos b	!	!	!	!	!	!
.	.	.	8c/J	.	8cc/J	.	.	.	.	.	.
!	!	!	!	!	!LO:LB:g=original	!	!	!	!	!	!
=5-	=5-	=5-	=5-	=5-	=5-	=5-	=5-	=5-	=5-	=5-	=5-
2BB-/	.	.	8d/L	.	4.b-/	0ryy	.	0ryy	.	0ryy	.
.	.	.	8e/J	.	.	.	.	.	.	.	.
.	.	.	4f/	.	.	.	.	.	.	.	.
.	.	.	.	.	8a/	.	.	.	.	.	.
2C/	4	.	4.f/	.	4.g/	.	.	.	.	.	.
!	!	!	!LO:TX:t=P:problem:kreska pseudotaktowa	!	!	!	!	!	!	!	!
.	3	.	8e/	.	8g/	.	.	.	.	.	.
4.FF/	5	.	4.f/	.	8a/L	.	.	.	.	.	.
.	.	.	.	.	8cc/J	.	.	.	.	.	.
.	6	.	.	.	4.dd\	.	.	.	.	.	.
8FF/	.	.	8a/	.	.	.	.	.	.	.	.
!	!	!	!LO:N:acc=#	!	!	!	!	!	!	!	!
4.GG/	5	.	4.bn/	.	.	.	.	.	.	.	.
.	.	.	.	.	8dd\	.	.	.	.	.	.
.	6	.	.	.	4.ee\	.	.	.	.	.	.
8GG/	.	.	8b/	.	.	.	.	.	.	.	.
=6-	=6-	=6-	=6-	=6-	=6-	=6-	=6-	=6-	=6-	=6-	=6-
4.AA/	5	.	4.cc\	.	.	0ryy	.	0ryy	.	0ryy	.
.	.	.	.	.	8ee\	.	.	.	.	.	.
.	6	.	.	.	(4ff\	.	.	.	.	.	.
!LO:N:acc=#	!	!	!	!	!	!	!	!	!	!	!
8BBn/	.	.	8dd\	.	.	.	.	.	.	.	.
2C/	4	.	4.g/	.	4ff\)	.	.	.	.	.	.
.	3	.	.	.	4ee\	.	.	.	.	.	.
.	.	.	8cc\	.	.	.	.	.	.	.	.
4FF/	.	.	4.cc\	.	4.dd\	.	.	.	.	.	.
4GG/	.	.	.	.	.	.	.	.	.	.	.
!	!	!	!LO:N:acc=#	!	!	!	!	!	!	!	!
.	.	.	8bn\	.	8dd\	.	.	.	.	.	.
!LO:TX:t=P:problem:kreska pseudotaktowa	!	!	!	!	!	!	!	!	!	!	!
!	!	!	!	!	!LO:TX:b:t=adagio	!	!	!	!	!	!
2C/	5	.	4cc\	.	4ee\	.	.	.	.	.	.
!	!	!	!LO:TX:b:t=adagio	!	!	!	!	!	!	!	!
.	6	.	2a/	.	4cc\	.	.	.	.	.	.
=7-	=7-	=7-	=7-	=7-	=7-	=7-	=7-	=7-	=7-	=7-	=7-
!LO:TX:b:t=adagio	!	!	!	!	!	!	!	!	!	!	!
4D/	6 5	.	.	.	2b-/	0ryy	.	0ryy	.	0ryy	.
4E\	.	.	2g/	.	.	.	.	.	.	.	.
4F\	9	.	.	.	2a/	.	.	.	.	.	.
.	8	.	.	.	.	.	.	.	.	.	.
4AA/	6	.	2f/	.	.	.	.	.	.	.	.
!LO:N:acc=#	!	!	!	!	!	!	!	!	!	!	!
4BBn/	6 -5	.	.	.	4.g/	.	.	.	.	.	.
!	!	!	!LO:TX:t=P:problem:kreska pseudotaktowa	!	!	!	!	!	!	!	!
4C#X/	5	.	4e/	.	.	.	.	.	.	.	.
.	6	.	.	.	8a/	.	.	.	.	.	.
4D/	6	.	4f/	.	4b-/	.	.	.	.	.	.
!	!	!	!LO:TX:t=P:problem:kreska pseudotaktowa	!	!	!	!	!	!	!	!
4C#/	6	.	4e/	.	4a/	.	.	.	.	.	.
=8-	=8-	=8-	=8-	=8-	=8-	=8-	=8-	=8-	=8-	=8-	=8-
4BB-y/	6	.	4d/	.	4g/	0ryy	.	0ryy	.	0ryy	.
4AA/	6	.	4c/	.	4f#X/	.	.	.	.	.	.
!	!	!	!LO:TX:t=P:problem:mixed beam	!	!LO:TX:t=P:problem:mixed beam	!	!	!	!	!	!
4GG/	.	.	8B-/L	.	8g/L	.	.	.	.	.	.
.	.	.	8b-y\	.	8gg\	.	.	.	.	.	.
4AA/	6	.	8a\	.	8ff\	.	.	.	.	.	.
!	!	!	!LO:TX:t=P:problem:kreska pseudotaktowa	!	!	!	!	!	!	!	!
.	.	.	8g\J	.	8ee\J	.	.	.	.	.	.
*	*	*	*	*	*2\right	*	*	*	*	*	*
4BB-/	.	.	4.f/	.	2.dd\	.	.	.	.	.	.
4FF/	6	.	.	.	.	.	.	.	.	.	.
.	.	.	8f/	.	.	.	.	.	.	.	.
4GG/	6 5	.	2e/	.	.	.	.	.	.	.	.
4AA/	x #	.	.	.	4cc#X\	.	.	.	.	.	.
=9-	=9-	=9-	=9-	=9-	=9-	=9-	=9-	=9-	=9-	=9-	=9-
!	!	!	!	!	!LO:TX:b:t=piano	!	!	!	!	!	!
2D/	-	.	4f/	.	4dd\	0ryy	.	0ryy	.	0ryy	.
.	.	.	2d/	.	4ff\	.	.	.	.	.	.
!	!	!LO:DY:b:t=piano.	!	!	!	!	!	!	!	!	!
4GG/	6 5	p	.	.	2ee\	.	.	.	.	.	.
!	!	!	!LO:TX:a:t=P:problem:# above	!	!	!	!	!	!	!	!
4AA/	#	.	4c#X/	.	.	.	.	.	.	.	.
!	!	!	!	!LO:DY:b:t=piano	!	!	!	!	!	!	!
1D;	.	.	1d;	p	1dd;	.	.	.	.	.	.
!LO:LB:g=original	!	!	!LO:LB:g=original	!	!LO:LB:g=original	!	!	!	!	!	!
=10||-	=10||-	=10||-	=10||-	=10||-	=10||-	=10||-	=10||-	=10||-	=10||-	=10||-	=10||-
*	*	*	*clefC1	*	*clefC1	*	*	*	*	*	*
*	*	*	*M2/1	*	*M2/1	*	*	*	*	*	*
*	*	*	*met(c)	*	*met(c)	*	*	*	*	*	*
!LO:TX:b:t=Repleta est	!	!	!LO:TX:b:t=Repleta est.	!	!LO:TX:b:t=Replata est.	!	!	!	!	!	!
!LO:TX:a:t=Alto ſolo	!	!	!LO:TX:a:t=un poco piano e tutto adagio	!	!LO:TX:a:t=un poco piano e tutto adagio	!	!	!	!	!	!
[<1D	.	.	1f	.	1a	0ryy	.	0ryy	.	4r	.
.	.	.	.	.	.	.	.	.	.	8r	.
.	.	.	.	.	.	.	.	.	.	8A/	Re-
.	.	.	.	.	.	.	.	.	.	4d\	-ple-
.	.	.	.	.	.	.	.	.	.	8d\	-ta
!	!	!	!	!	!	!	!	!	!	!LO:TX:t=P:problem:kreska pseudotaktowa	!
.	.	.	.	.	.	.	.	.	.	8d\	est
2D/]	.	.	2d/	.	2.a\	.	.	.	.	4f\	ma-
.	.	.	.	.	.	.	.	.	.	4.f\	-lis
2E\	# 6	.	4c#X/	.	.	.	.	.	.	.	.
.	.	.	.	.	.	.	.	.	.	8c#X/	a-
.	.	.	4e/	.	4g/	.	.	.	.	8.c#/	-ni-
!	!	!	!	!	!	!	!	!	!	!LO:TX:t=P:problem:kreska pseudotaktowa	!
.	.	.	.	.	.	.	.	.	.	16d\	-ma
=11-	=11-	=11-	=11-	=11-	=11-	=11-	=11-	=11-	=11-	=11-	=11-
[1D	-	.	1A	.	2.fny/	0ryy	.	0ryy	.	2d\	no-
.	.	.	.	.	.	.	.	.	.	2d\	-stra
.	.	.	.	.	4a\	.	.	.	.	.	.
1D]	.	.	2f/	.	1a	.	.	.	.	4r	.
.	.	.	.	.	.	.	.	.	.	8r	.
.	.	.	.	.	.	.	.	.	.	8d\	re-
.	.	.	1d	.	.	.	.	.	.	4f\	-ple-
.	.	.	.	.	.	.	.	.	.	8f\	-ta
!	!	!	!	!	!	!	!	!	!	!LO:TX:t=P:problem:kreska pseudotaktowa	!
.	.	.	.	.	.	.	.	.	.	8f\	est
=12-	=12-	=12-	=12-	=12-	=12-	=12-	=12-	=12-	=12-	=12-	=12-
2GG/	.	.	.	.	2g/	0ryy	.	0ryy	.	4b-\	ma-
.	.	.	.	.	.	.	.	.	.	4b-\	-lis
2AA/	# 6	.	4.cny/	.	4r	.	.	.	.	4f#X\	a-
.	.	.	.	.	4ccny\	.	.	.	.	8.f#\	-ni-
.	.	.	8d/	.	.	.	.	.	.	.	.
!	!	!	!	!	!	!	!	!	!	!LO:SIC:v:t=custos g	!
.	.	.	.	.	.	.	.	.	.	16g\	-ma
!	!	!	!	!	!	!	!	!	!	!LO:LB:g=original	!
2GG/	.	.	[1d	.	2b-\	.	.	.	.	4g\	no-
.	.	.	.	.	.	.	.	.	.	4g\	-stra
2BB-/	6	.	.	.	2g/	.	.	.	.	4d\	a-
.	.	.	.	.	.	.	.	.	.	8d\	-ni-
.	.	.	.	.	.	.	.	.	.	8e\	-ma
=13-	=13-	=13-	=13-	=13-	=13-	=13-	=13-	=13-	=13-	=13-	=13-
1AA	6 4	.	2d/]	.	(1a	0ryy	.	0ryy	.	2fny\	no-
!	!	!	!LO:TX:b:t=P:problem:# below	!	!	!	!	!	!	!	!
.	5 #3r	.	2c#X/	.	.	.	.	.	.	2e\	-stra
2A\	#	.	2c#/	.	1a	.	.	.	.	8r	.
.	.	.	.	.	.	.	.	.	.	8e\	et
.	.	.	.	.	.	.	.	.	.	8.e\	fac-
.	.	.	.	.	.	.	.	.	.	16f\	-ti
[2F#X\	.	.	2d/	.	.	.	.	.	.	4d\	su-
!	!	!	!	!	!	!	!	!	!	!LO:TX:t=P:problem:kreska pseudotaktowa	!
.	.	.	.	.	.	.	.	.	.	4d\	-mus
=14-	=14-	=14-	=14-	=14-	=14-	=14-	=14-	=14-	=14-	=14-	=14-
2F#\]	.	.	1d	.	1a)	0ryy	.	0ryy	.	4r	.
.	.	.	.	.	.	.	.	.	.	4a\	et
2Fny\	6 -5	.	.	.	.	.	.	.	.	4.cc\	fac-
!	!	!	!	!	!	!	!	!	!	!LO:TX:t=P:problem:kreska pseudotaktowa	!
.	.	.	.	.	.	.	.	.	.	8b-\	-ti
2G\	.	.	2d/	.	1g	.	.	.	.	4b-\	su-
.	.	.	.	.	.	.	.	.	.	4b-\	-m(us)
[2G\	6	.	4.e/	.	.	.	.	.	.	4.g\	si-
!	!	!	!	!	!	!	!	!	!	!LO:TX:t=P:problem:kreska pseudotaktowa	!
.	.	.	8c#X/	.	.	.	.	.	.	8e\	-cut
=15-	=15-	=15-	=15-	=15-	=15-	=15-	=15-	=15-	=15-	=15-	=15-
2G\]	6 4 2	.	2A/	.	1a	0ryy	.	0ryy	.	4c#X/	ho-
.	.	.	.	.	.	.	.	.	.	4c#/	-mo
2F\	6	.	4f/	.	.	.	.	.	.	8d\	si-
.	.	.	.	.	.	.	.	.	.	8d\	-ne
.	.	.	2d/	.	.	.	.	.	.	8e\	a-
.	.	.	.	.	.	.	.	.	.	8f\	-diu-
2E\	7	.	.	.	4.g/	.	.	.	.	4.g\	-to-
.	6	.	4c#X/	.	.	.	.	.	.	.	.
.	.	.	.	.	8a\	.	.	.	.	8f\	-ri-
!	!	!	!	!	!	!	!	!	!	!LO:SIC:v:t=custos b	!
[2D/	-	.	2d/	.	2a\	.	.	.	.	2f\	-o
!	!	!	!	!	!	!	!	!	!	!LO:LB:g=original	!
=16-	=16-	=16-	=16-	=16-	=16-	=16-	=16-	=16-	=16-	=16-	=16-
!	!	!	!	!	!	!	!	!	!	!LO:TX:b:t=adagio	!
4D/]	- 6	.	4f/	.	1d	0ryy	.	0ryy	.	4b-X\	si-
4Cny/	6	.	4e/	.	.	.	.	.	.	4a\	-cut
4BB-/	6	.	4d/	.	.	.	.	.	.	4g\	ho-
!LO:SIC:v:t=custos GG	!	!	!	!	!	!	!	!	!	!	!
4AA/	6	.	4cny/	.	.	.	.	.	.	4f\	-mo
!LO:LB:g=original	!	!	!	!	!	!	!	!	!	!	!
2GG/	- 6	.	4B-/	.	2.g/	.	.	.	.	8.e-X\	si-
.	.	.	.	.	.	.	.	.	.	16e-\	-ne
*	*	*	*2\right	*	*	*	*	*	*	*	*
.	.	.	2b-\	.	.	.	.	.	.	8f\	ad-
.	.	.	.	.	.	.	.	.	.	8g\	-iu-
4BB-/	.	.	.	.	.	.	.	.	.	[2d\	-to-
4FF/	6	.	4a\	.	4f/	.	.	.	.	.	.
=17-	=17-	=17-	=17-	=17-	=17-	=17-	=17-	=17-	=17-	=17-	=17-
4GG/	.	.	4b-\	.	2e/	0ryy	.	0ryy	.	4.d\]	.
4AA/	4	.	4a\	.	.	.	.	.	.	.	.
.	3	.	.	.	.	.	.	.	.	16eny\LL	-ri-
.	.	.	.	.	.	.	.	.	.	16f\JJ	.
[2D/	.	.	4a\	.	4f/	.	.	.	.	2d\	-o
.	.	.	2f/	.	4a\	.	.	.	.	.	.
!	!	!	!	!	!	!	!	!	!	!LO:TX:a:t=2	!
4D/]	6	.	.	.	4b-\	.	.	.	.	0r	.
4C/	6	.	4e/	.	4a\	.	.	.	.	.	.
4BB-/	6	.	4d/	.	4g/	.	.	.	.	.	.
4AA/	6	.	4c/	.	4f/	.	.	.	.	.	.
=18-	=18-	=18-	=18-	=18-	=18-	=18-	=18-	=18-	=18-	=18-	=18-
2GG/	- 6	.	4B-/	.	4.e-X/	0ryy	.	0ryy	.	.	.
.	.	.	2b-\	.	.	.	.	.	.	.	.
.	x 5	.	.	.	8d/	.	.	.	.	.	.
4BB-/	.	.	.	.	2.d/	.	.	.	.	.	.
4FF/	.	.	4a\	.	.	.	.	.	.	.	.
4GG/	.	.	4.e/	.	.	.	.	.	.	2r	.
4AA/	.	.	.	.	4c#X/	.	.	.	.	.	.
.	.	.	8e/	.	.	.	.	.	.	.	.
1D	#	.	2f#X/	.	2d/	.	.	.	.	4r	.
!	!	!	!	!	!	!	!	!	!	!LO:TX:t=P:problem:kreska pseudotaktowa	!
.	.	.	.	.	.	.	.	.	.	4f#X\	et
=19-	=19-	=19-	=19-	=19-	=19-	=19-	=19-	=19-	=19-	=19-	=19-
.	.	.	2d/	.	2a\	0ryy	.	0ryy	.	8fny\	si-
.	.	.	.	.	.	.	.	.	.	8f\	-cut
.	.	.	.	.	.	.	.	.	.	8.f\	vul-
.	.	.	.	.	.	.	.	.	.	16g\	-ne-
!LO:N:acc=#	!	!	!	!	!	!	!	!	!	!	!
[2BBn/	6	.	4.d/	.	4.g/	.	.	.	.	4g\	-ra-
.	.	.	.	.	.	.	.	.	.	4g\	-ti
.	.	.	8d/	.	8g,/	.	.	.	.	.	.
2BB/]	6 -5	.	8d/L	.	8f/L	.	.	.	.	2r	.
.	x 6	.	8d/	.	8f/	.	.	.	.	.	.
.	.	.	8.d/	.	8f/	.	.	.	.	.	.
.	.	.	.	.	8g/J	.	.	.	.	.	.
.	.	.	16e/Jk	.	.	.	.	.	.	.	.
!	!	!	!LO:SIC:v:t=custos c	!	!	!	!	!	!	!	!
2C/	#	.	2e/	.	2g,/	.	.	.	.	4r	.
*	*	*	*	*	*	*	*	*	*	*	*ij
.	.	.	.	.	.	.	.	.	.	4g\	et
!	!	!	!LO:LB:g=original	!	!	!	!	!	!	!	!
=20-	=20-	=20-	=20-	=20-	=20-	=20-	=20-	=20-	=20-	=20-	=20-
2.C/	5	.	2c/	.	2.eny/	0ryy	.	0ryy	.	8g\	si-
.	.	.	.	.	.	.	.	.	.	8g\	-cut
.	.	.	.	.	.	.	.	.	.	8.g\	vul-
!	!	!	!	!	!	!	!	!	!	!LO:SIC:v:t=custos a	!
.	6	.	.	.	.	.	.	.	.	16a\	-ne-
!	!	!	!	!	!	!	!	!	!	!LO:LB:g=original	!
.	.	.	2A/	.	.	.	.	.	.	4a\	-ra-
!	!	!	!	!	!	!	!	!	!	!LO:TX:t=P:problem:kreska pseudotaktowa	!
4C/	.	.	.	.	4e,/	.	.	.	.	4a\	-ti
*	*	*	*	*	*	*	*	*	*	*	*Xij
8C#X/L	6	.	1a	.	8e/L	.	.	.	.	2r	.
8C#/	.	.	.	.	8e/	.	.	.	.	.	.
8C#/	.	.	.	.	8.e/	.	.	.	.	.	.
8D/J	#	.	.	.	.	.	.	.	.	.	.
!	!	!	!	!	!LO:TX:b:t=P:problem:# below	!	!	!	!	!	!
.	.	.	.	.	16f#X/Jk	.	.	.	.	.	.
!	!	!	!	!	!LO:LB:g=original	!	!	!	!	!	!
2D/	.	.	.	.	4f#X/	.	.	.	.	4r	.
.	.	.	.	.	4f#,/	.	.	.	.	8a\	dor-
!	!	!	!	!	!	!	!	!	!	!LO:TX:t=P:problem:kreska pseudotaktowa	!
.	.	.	.	.	.	.	.	.	.	8a\	-mi-
=21-	=21-	=21-	=21-	=21-	=21-	=21-	=21-	=21-	=21-	=21-	=21-
1D	7 5 #3	.	2.a\	.	2.f#/	0ryy	.	0ryy	.	4.cc\	-en-
.	.	.	.	.	.	.	.	.	.	8cc\	-tos
.	.	.	.	.	.	.	.	.	.	4.cc\	in
.	.	.	4a\	.	4d,/	.	.	.	.	.	.
.	.	.	.	.	.	.	.	.	.	8b-X\	se-
2GG/	.	.	2g/	.	2d/	.	.	.	.	4b-\	-pul-
.	.	.	.	.	.	.	.	.	.	4b-\	-chris
!LO:TX:t=P:problem:kreska pseudotaktowa	!	!	!LO:TX:b:t=adagio	!	!LO:TX:b:t=adagio	!	!	!	!	!LO:TX:a:t=adagio	!
[<2G\	10 8 5	.	4g/	.	4b-\	.	.	.	.	4d\	dor-
.	9 7 4	.	4f#X/	.	4a,\	.	.	.	.	4cny/	-mi-
=22-	=22-	=22-	=22-	=22-	=22-	=22-	=22-	=22-	=22-	=22-	=22-
2G\]	7 5 3	.	2d/	.	4g/	0ryy	.	0ryy	.	2B-/	-en-
.	.	.	.	.	4fny/	.	.	.	.	.	.
4.G\	- 6 4	.	4c/	.	4e-X/	.	.	.	.	2G/	-tos
!	!	!	!LO:N:acc=#	!	!	!	!	!	!	!	!
.	.	.	4Bn/	.	4d,/	.	.	.	.	.	.
!LO:SIC:v:t=custos E	!	!	!	!	!	!	!	!	!	!	!
8F\	x 5 3	.	.	.	.	.	.	.	.	.	.
!LO:LB:g=original	!	!	!	!	!	!	!	!	!	!	!
4E-X\	6	.	1g	.	4e-/	.	.	.	.	4g\	dor-
!	!	!	!	!	!LO:N:acc=#	!	!	!	!	!	!
4D/	# 6	.	.	.	4Bn/	.	.	.	.	4f\	-mi-
4Cny/	-	.	.	.	4cny/	.	.	.	.	4e-X\	-en-
!LO:N:acc=#	!	!	!	!	!	!	!	!	!	!	!
4BBn/	.	.	.	.	4d,/	.	.	.	.	4d\	-tos
=23-	=23-	=23-	=23-	=23-	=23-	=23-	=23-	=23-	=23-	=23-	=23-
[2C/	-	.	2.g/	.	2c/	0ryy	.	0ryy	.	2.e-X\	in
2C/]	5	.	.	.	2.cc\	.	.	.	.	.	.
.	6	.	4a\	.	.	.	.	.	.	4e-\	se-
1D	7 #3	.	4f#X/	.	.	.	.	.	.	1d	-pul-
.	6 4	.	2g/	.	4b-\	.	.	.	.	.	.
.	5 #3r	.	.	.	2a,\	.	.	.	.	.	.
.	.	.	4f#X/	.	.	.	.	.	.	.	.
=24-	=24-	=24-	=24-	=24-	=24-	=24-	=24-	=24-	=24-	=24-	=24-
2GG/	.	.	2g/	.	2b-\	0ryy	.	0ryy	.	2d\	-chris
!LO:TX:t=P:problem:kreska pseudotaktowa	!	!	!	!	!	!	!	!	!	!	!
[<2G\	5	.	1B-y	.	1g	.	.	.	.	4r	.
.	.	.	.	.	.	.	.	.	.	8.d\	quo-
!	!	!	!	!	!	!	!	!	!	!LO:SIC:v:t=custos e	!
.	.	.	.	.	.	.	.	.	.	16d\	-rum
!	!	!	!	!	!	!	!	!	!	!LO:LB:g=original	!
2G\_<	6	.	.	.	.	.	.	.	.	4.eny\	non
.	.	.	.	.	.	.	.	.	.	8d\	est
2G\]	6 #4 2	.	2e/	.	1a	.	.	.	.	4c#X/	me-
.	.	.	.	.	.	.	.	.	.	4c#/	-mor
=25-	=25-	=25-	=25-	=25-	=25-	=25-	=25-	=25-	=25-	=25-	=25-
[<2F\	6	.	2fny/	.	.	0ryy	.	0ryy	.	4r	.
.	.	.	.	.	.	.	.	.	.	8.d\	non
.	.	.	.	.	.	.	.	.	.	16cny/	est
!	!	!	!	!	!	!	!	!	!	!LO:N:acc=#	!
2F\]	6 #4 2	.	2d/	.	2g,/	.	.	.	.	2Bn/	me-
4E-X\	.	.	4g/	.	4cc\	.	.	.	.	4c/	-mor
!	!	!	!	!	!LO:N:acc=#	!	!	!	!	!	!
4D/	# 6	.	4f/	.	4bn\	.	.	.	.	4r	.
[2C/	10 8 5	.	4cc\	.	4ee-X\	.	.	.	.	4g\	non
!	!	!	!LO:N:acc=#	!	!	!	!	!	!	!	!
.	9 7 4	.	4bn\	.	4dd,\	.	.	.	.	4f\	e(st)
=26-	=26-	=26-	=26-	=26-	=26-	=26-	=26-	=26-	=26-	=26-	=26-
2C/]	8 5 3	.	2g/	.	4cc\	0ryy	.	0ryy	.	2e-X\	me-
.	7	.	.	.	4b-y\	.	.	.	.	.	.
4.C/	- 6 4	.	4f/	.	4a-X\	.	.	.	.	2c/	-mor
.	x 5 3	.	4e/	.	4g,/	.	.	.	.	.	.
8BB-y/	.	.	.	.	.	.	.	.	.	.	.
!	!	!	!	!	!	!	!	!	!	!LO:TX:b:t=adagio	!
4AA-X/	6	.	1cc	.	4a-X\	.	.	.	.	4cc\	quo-
4GG/	6	.	.	.	4eny/	.	.	.	.	4b-\	-ru(m)
4FF/	.	.	.	.	4f/	.	.	.	.	4a-X\	no(n)
4EE/	6	.	.	.	4g,/	.	.	.	.	4g\	est
=27-	=27-	=27-	=27-	=27-	=27-	=27-	=27-	=27-	=27-	=27-	=27-
2FF/	-	.	2.cc\	.	2f/	0ryy	.	0ryy	.	2a-X\	me-
2FF/	5	.	.	.	2.ff\	.	.	.	.	2a-\	-mor
.	6	.	4dd\	.	.	.	.	.	.	.	.
!	!	!	!LO:N:acc=#	!	!	!	!	!	!	!	!
1GG	7 #3	.	4bn\	.	.	.	.	.	.	2.g\	am-
.	6 4	.	2cc\	.	4ee-X\	.	.	.	.	.	.
.	.	.	.	.	4.dd\	.	.	.	.	.	.
.	5 #3r	.	4b\	.	.	.	.	.	.	4g\	-pli-
.	.	.	.	.	8gg\	.	.	.	.	.	.
=28-	=28-	=28-	=28-	=28-	=28-	=28-	=28-	=28-	=28-	=28-	=28-
4C/	-	.	4ee-X\	.	2gg\	0ryy	.	0ryy	.	2g\	-us
4BB-/	.	.	4dd\	.	.	.	.	.	.	.	.
4AA-X/	6	.	4cc\	.	4ff\	.	.	.	.	2r	.
!LO:SIC:v:t=custos FF	!	!	!	!	!LO:N:acc=#	!	!	!	!	!	!
4GG/	# 6	.	4b-y\	.	4een\	.	.	.	.	.	.
!LO:LB:g=original	!	!	!	!	!	!	!	!	!	!LO:TX:a:t=4	!
4FF/	.	.	4a\	.	2.ff\	.	.	.	.	00r	.
!	!	!	!LO:N:acc=#	!	!	!	!	!	!	!	!
4GG/	.	.	4bn\	.	.	.	.	.	.	.	.
4AA-X/	6	.	2.cc\	.	.	.	.	.	.	.	.
4EE-X/	.	.	.	.	4ee-X,\	.	.	.	.	.	.
=29-	=29-	=29-	=29-	=29-	=29-	=29-	=29-	=29-	=29-	=29-	=29-
4FF/	6 5	.	.	.	4.dd\	0ryy	.	0ryy	.	.	.
!	!	!	!LO:N:acc=#	!	!	!	!	!	!	!	!
4GG/	#	.	4bn\	.	.	.	.	.	.	.	.
.	.	.	.	.	8gg\	.	.	.	.	.	.
!	!	!LO:DY:b:t=pian.	!	!	!LO:SIC:v:t=custos ff	!	!	!	!	!	!
4C/	-	p	4ee-X\	.	2gg,\	.	.	.	.	.	.
4BB-/	.	.	4dd\	.	.	.	.	.	.	.	.
!	!	!	!	!	!LO:LB:g=original	!	!	!	!	!	!
4AA-X/	.	.	4cc\	.	4ff\	.	.	.	.	.	.
4GG/	# 6	.	4b\	.	4eeny\	.	.	.	.	.	.
4FF/	.	.	4a\	.	2.ff\	.	.	.	.	.	.
!	!	!	!LO:TX:a:t=P:problem:# above	!	!	!	!	!	!	!	!
!	!	!	!LO:N:acc=#	!	!	!	!	!	!	!	!
!	!	!	!LO:SIC:v:t=custos cc	!	!	!	!	!	!	!	!
4GG/	.	.	4bn\	.	.	.	.	.	.	.	.
!	!	!	!LO:LB:g=original	!	!	!	!	!	!	!	!
=30-	=30-	=30-	=30-	=30-	=30-	=30-	=30-	=30-	=30-	=30-	=30-
4AA-X/	6	.	2.cc\	.	.	0ryy	.	0ryy	.	.	.
4EE-X/	.	.	.	.	4ee-X\	.	.	.	.	.	.
4FF/	6	.	.	.	2dd,\	.	.	.	.	.	.
!	!	!	!LO:N:acc=#	!	!	!	!	!	!	!	!
4GG/	.	.	4bn\	.	.	.	.	.	.	.	.
2C/	#	.	1cc	.	4ee-\	.	.	.	.	4r	.
.	.	.	.	.	4g/	.	.	.	.	8eny\	Tri-
!	!	!	!	!	!	!	!	!	!	!LO:SIC:v:t=custos f	!
.	.	.	.	.	.	.	.	.	.	8e\	-bu-
!LO:TX:t=P:problem:kreska pseudotaktowa	!	!	!	!	!	!	!	!	!	!	!
[2AAny/	6	.	.	.	2any,\	.	.	.	.	8.f\	-la-
.	.	.	.	.	.	.	.	.	.	16f\	-ti-
.	.	.	.	.	.	.	.	.	.	4f\	-o
=31-	=31-	=31-	=31-	=31-	=31-	=31-	=31-	=31-	=31-	=31-	=31-
2AA/]	.	.	2cc\	.	1f	0ryy	.	0ryy	.	4c/	pro-
.	.	.	.	.	.	.	.	.	.	8c/	-xi-
.	.	.	.	.	.	.	.	.	.	8d\	-ma
2BB-/	.	.	2b-y\	.	.	.	.	.	.	2d\	est
2BB-/	.	.	[1b-	.	1d	.	.	.	.	4r	.
.	.	.	.	.	.	.	.	.	.	8f\	tri-
.	.	.	.	.	.	.	.	.	.	8f\	-bu-
!LO:TX:t=P:problem:kreska pseudotaktowa	!	!	!	!	!	!	!	!	!	!	!
[2GG/	5	.	.	.	.	.	.	.	.	8.b-X\	-la-
.	.	.	.	.	.	.	.	.	.	16b-\	-ti-
.	.	.	.	.	.	.	.	.	.	4b-\	-o
=32-	=32-	=32-	=32-	=32-	=32-	=32-	=32-	=32-	=32-	=32-	=32-
2GG/]	# 6	.	2b-\]	.	2g/	0ryy	.	0ryy	.	4e\	pro-
.	.	.	.	.	.	.	.	.	.	8e\	-xi-
.	.	.	.	.	.	.	.	.	.	8f\	-ma
2FF/	.	.	2a\	.	2c/	.	.	.	.	4f\	est
.	.	.	.	.	.	.	.	.	.	8.any\	et
.	.	.	.	.	.	.	.	.	.	16a\	no(n)
4BB-/	6	.	2b-\	.	4d/	.	.	.	.	4g\	est
4C/	.	.	.	.	4e/	.	.	.	.	8r	.
.	.	.	.	.	.	.	.	.	.	16g\LL	no(n)
.	.	.	.	.	.	.	.	.	.	16f\JJ	.
4D/	.	.	2a\	.	2f/	.	.	.	.	4f\	est
4AA/	6	.	.	.	.	.	.	.	.	16r	.
.	.	.	.	.	.	.	.	.	.	16cc\LL	qui
.	.	.	.	.	.	.	.	.	.	16b-\	.
.	.	.	.	.	.	.	.	.	.	16a\JJ	.
=33-	=33-	=33-	=33-	=33-	=33-	=33-	=33-	=33-	=33-	=33-	=33-
4BB-/	.	.	4d/	.	4.f/	0ryy	.	0ryy	.	4.g\	ad-
4C/	.	.	4c/	.	.	.	.	.	.	.	.
.	.	.	.	.	8e/	.	.	.	.	8g\	-iu-
!LO:SIC:v:t=custos BB-	!	!	!	!	!	!	!	!	!	!LO:SIC:v:t=custos a	!
2FF/	.	.	4.c/	.	4.f/	.	.	.	.	2a\	-vet
.	.	.	8f/	.	8a\	.	.	.	.	.	.
!LO:LB:g=original	!	!	!	!	!	!	!	!	!	!LO:LB:g=original	!
!	!	!	!	!	!	!	!	!	!	!LO:N:vis=1	!
4BB-/	6 5	.	4.f/	.	4.g/	.	.	.	.	0r	.
4C/	.	.	.	.	.	.	.	.	.	.	.
.	.	.	8e/	.	8a\	.	.	.	.	.	.
4D/	-6	.	4.f/	.	4b-\	.	.	.	.	.	.
4AA/	6	.	.	.	4cc\	.	.	.	.	.	.
.	.	.	8f/	.	.	.	.	.	.	.	.
=34-	=34-	=34-	=34-	=34-	=34-	=34-	=34-	=34-	=34-	=34-	=34-
4BB-/	6 5	.	4.f/	.	4.g/	0ryy	.	0ryy	.	.	.
4C/	.	.	.	.	.	.	.	.	.	.	.
.	.	.	8e/	.	8g/	.	.	.	.	.	.
2FF,/	.	.	2f/	.	2a\	.	.	.	.	.	.
2AA/	#	.	2e/	.	2.a\	.	.	.	.	2r	.
2BB-/	7	.	2d/	.	.	.	.	.	.	4r	.
.	6	.	.	.	4g/	.	.	.	.	8a\	tri-
.	.	.	.	.	.	.	.	.	.	8a\	-bu-
=35-	=35-	=35-	=35-	=35-	=35-	=35-	=35-	=35-	=35-	=35-	=35-
2.AA/	5	.	2e/	.	1a	0ryy	.	0ryy	.	8.c#X/	-la-
.	.	.	.	.	.	.	.	.	.	16c#/	-ti-
.	.	.	.	.	.	.	.	.	.	4c#/	-o
.	6 #	.	4r	.	.	.	.	.	.	4d\	pro-
8AA/L	.	.	8c#X/L	.	.	.	.	.	.	8d\	-xi-
8AA/J	.	.	8c#/J	.	.	.	.	.	.	8e\	-ma
4BB-/	.	.	2d/	.	4f/	.	.	.	.	4c#X/	est
8FF#X/L	6	.	.	.	8dd\L	.	.	.	.	8.e\	et
8FF#/J	.	.	.	.	8dd\J	.	.	.	.	.	.
.	.	.	.	.	.	.	.	.	.	16e\	non
[2GG/	.	.	2d/	.	2g,/	.	.	.	.	4f\	est
.	.	.	.	.	.	.	.	.	.	4r	.
=36-	=36-	=36-	=36-	=36-	=36-	=36-	=36-	=36-	=36-	=36-	=36-
4GG/]	2	.	4e/	.	2.a\	0ryy	.	0ryy	.	4r	.
8FFny/L	6	.	4f/	.	.	.	.	.	.	8.a\	et
8GG/J	.	.	.	.	.	.	.	.	.	.	.
.	.	.	.	.	.	.	.	.	.	16a\	non
2AA/	4 3	.	4e/	.	.	.	.	.	.	4.b-X\	est
.	.	.	8e/L	.	4a\	.	.	.	.	.	.
.	.	.	8e/J	.	.	.	.	.	.	8g\	qui
2D/	-	.	2f/	.	4a\	.	.	.	.	16c#X/LL	ad-
.	.	.	.	.	.	.	.	.	.	16B-y/J	.
.	.	.	.	.	.	.	.	.	.	8A/J	.
.	.	.	.	.	8a\L	.	.	.	.	2d\	.
.	.	.	.	.	8a\J	.	.	.	.	.	.
4GG/	.	.	4g/	.	4b-\	.	.	.	.	.	.
4AA/	# 5	.	4.cc\	.	8f#X/L	.	.	.	.	4c#X/	-iur-
.	.	.	.	.	8f#/J	.	.	.	.	.	.
=37-	=37-	=37-	=37-	=37-	=37-	=37-	=37-	=37-	=37-	=37-	=37-
2GG/	6 4	.	.	.	4g/	0ryy	.	0ryy	.	2d\	-vet.
.	x 3	.	8b-\	.	.	.	.	.	.	.	.
.	.	.	4b-\	.	8d/L	.	.	.	.	.	.
.	.	.	.	.	8d/J	.	.	.	.	.	.
2GG/	6 #3	.	2g/	.	4e-X/	.	.	.	.	2r	.
!	!	!	!	!	!LO:N:acc=#	!	!	!	!	!	!
.	.	.	.	.	8Bn/L	.	.	.	.	.	.
.	.	.	.	.	8B/J	.	.	.	.	.	.
!	!	!	!	!	!LO:SIC:v:t=custos dd	!	!	!	!	!LO:TX:a:t=5	!
2AA/	#	.	4r	.	2c#X/	.	.	.	.	00r	.
.	.	.	8a\L	.	.	.	.	.	.	.	.
.	.	.	8a\J	.	.	.	.	.	.	.	.
!	!	!	!	!	!LO:LB:g=original	!	!	!	!	!	!
2D/	-	.	2f/	.	4r	.	.	.	.	.	.
.	.	.	.	.	8dd\L	.	.	.	.	.	.
.	.	.	.	.	8dd,\J	.	.	.	.	.	.
=38-	=38-	=38-	=38-	=38-	=38-	=38-	=38-	=38-	=38-	=38-	=38-
1GG	5	.	4.g/	.	4.b-\	0ryy	.	0ryy	.	.	.
.	.	.	8f/	.	8a\	.	.	.	.	.	.
.	6	.	4e/	.	4g/	.	.	.	.	.	.
.	.	.	4d/	.	4fny,/	.	.	.	.	.	.
!	!	!	!LO:TX:b:t=P:problem:# below	!	!	!	!	!	!	!	!
1AA	# 3	.	8c#X/L	.	2.eny/	.	.	.	.	.	.
.	.	.	8A/J	.	.	.	.	.	.	.	.
.	5 4	.	2d/	.	.	.	.	.	.	.	.
!	!	!	!LO:TX:b:t=P:problem:# below	!	!	!	!	!	!	!	!
.	# 3	.	4c#X/	.	4e/	.	.	.	.	.	.
=39-	=39-	=39-	=39-	=39-	=39-	=39-	=39-	=39-	=39-	=39-	=39-
1D;	.	.	1d;	.	1f#X;	0ryy	.	0ryy	.	.	.
!	!	!	!	!	!	!	!	!	!	!LO:SIC:v:t=custos d	!
1ryy	.	.	1ryy	.	1ryy	.	.	.	.	1r	.
!LO:LB:g=original	!	!	!LO:LB:g=original	!	!	!	!	!	!	!LO:LB:g=original	!
=40||-	=40||-	=40||-	=40||-	=40||-	=40||-	=40||-	=40||-	=40||-	=40||-	=40||-	=40||-
*>B	*	*>B	*>B	*>B	*>B	*>B	*>B	*>B	*>B	*>B	*>B
*	*	*	*clefG2	*	*clefG2	*	*	*	*	*	*
*	*	*	*k[b-]	*	*k[b-]	*	*	*	*	*	*
*M3/2	*	*	*M3/2	*	*M3/2	*M3/2	*	*M3/2	*	*M3/2	*
*all\right	*	*	*	*	*	*	*	*	*	*	*
!LO:TX:a:t=+	!	!	!LO:TX:a:t=+	!	!LO:TX:a:t=+	!LO:TX:a:t=+	!	!LO:TX:a:t=+	!	!LO:TX:a:t=+	!
!LO:TX:b:t=Exurge a 5	!	!	!LO:TX:b:t=Exurge Domine	!	!LO:TX:b:t=Exurge Domine	!	!	!	!	!LO:TX:a:t=allegro	!
2BB-/	.	.	1b-	.	1ff	2BB-/	E-	2B-\	E-	2d\	E-
2D/	6	.	.	.	.	2D/	-xur-	2B-\	-xur-	2d\	-xur-
*2\right	*	*	*	*	*	*	*	*	*	*	*
2F\	.	.	2cc\	.	2ff\	2F\	-ge	2A/	-ge	2cny/	-ge
1.BB-	.	.	1.b-	.	1.ff	2.BB-/	Do-	2.B-\	Do-	2.d\	Do-
.	.	.	.	.	.	4BB-/	-mi-	4B-\	-mi-	4d\	-mi-
.	.	.	.	.	.	2BB-/	-ne	2B-\	-ne	2d\	-ne
=41-	=41-	=41-	=41-	=41-	=41-	=41-	=41-	=41-	=41-	=41-	=41-
*	*	*	*	*	*	*	*ij	*	*ij	*	*
2FF/	.	.	1cc	.	1ff	2FF/	e-	2A/	e-	2f\	e-
2AA/	6	.	.	.	.	2AA/	-xur-	2A/	-xur-	2f\	-xur-
2C/	.	.	2cc\	.	2gg\	2C/	-ge	2G/	-ge	2e\	-ge
1.FF	.	.	1.cc	.	1.ff	2.FF/	Do-	2.A/	Do-	2.f\	do-
.	.	.	.	.	.	4FF/	-mi-	4A/	-mi-	4f\	-mi-
.	.	.	.	.	.	2FF/	-ne	2A/	-ne	2f\	-ne
*	*	*	*	*	*	*	*Xij	*	*Xij	*	*
=42-	=42-	=42-	=42-	=42-	=42-	=42-	=42-	=42-	=42-	=42-	=42-
*M2/1	*	*	*M2/1	*	*M2/1	*M2/1	*	*M2/1	*	*M2/1	*
*met(c)	*	*	*met(c)	*	*met(c)	*met(c)	*	*met(c)	*	*met(c)	*
2FF/	.	.	2r	.	2r	8r	.	8r	.	8r	.
!	!	!	!	!	!	!LO:TX:a:t=adagio	!	!LO:TX:b:t=adagio	!	!LO:TX:b:t=adagio	!
.	.	.	.	.	.	8F\	in	8f\	in	8a\	in
.	.	.	.	.	.	8F\	ad-	8f\	ad-	8a\	ad-
.	.	.	.	.	.	8F\	-iu-	8f\	-iu-	8a\	-iu-
!LO:TX:b:t=adagio	!	!	!	!	!	!LO:N:acc=#	!	!	!	!	!
!LO:N:acc=#	!	!	!	!	!	!	!	!	!	!	!
2BBn/	6 -5	.	8r	.	8r	4.BBn/	-to-	4.f\	-to-	4.g\	-to-
!	!	!	!LO:TX:b:t=adagio	!	!LO:TX:a:t=adagio	!	!	!	!	!	!
.	.	.	8dd\L	.	8ff\L	.	.	.	.	.	.
.	.	.	8dd\	.	8ff\	.	.	.	.	.	.
!	!	!	!	!	!LO:TX:t=P:problem:kreska pseudotaktowa	!LO:SIC:v:t=custos C	!	!LO:SIC:v:t=custos G	!	!	!
.	.	.	8dd\J	.	8ff\J	8BB/	-ri-	8d\	-ri-	8g\	-ri-
!	!	!	!	!	!	!	!	!LO:LB:g=original	!	!	!
2C/	9 -	.	4dd\	.	2ee-X\	8C/	-um	8G/	-um	8g\	-um
*	*	*	*	*	*	*	*ij	*	*ij	*	*ij
.	.	.	.	.	.	8C/	in	8c\	in	8e-X\	in
.	8	.	4cc\	.	.	8C/	ad-	8c\	ad-	8e-\	ad-
.	.	.	.	.	.	8C/	-iu-	8c\	-iu-	8e-\	-iu-
4.D/	8 7	.	4r	.	4.ff\	4D/	-to-	4c\	-to-	4d\	-to-
!	!	!	!LO:TX:t=P:problem:kreska pseudotaktowa	!	!	!	!	!	!	!	!
.	x 6	.	4b-/	.	.	8D/	-ri-	8B-\	-ri-	8d\	-ri-
!LO:TX:a:t=P:problem:♭ above	!	!	!	!	!	!	!	!	!	!LO:SIC:v:t=custos c	!
8E-X\	.	.	.	.	8gg\	8E-X\	-um	8B-\	-um	8c/	-um
*	*	*	*	*	*	*	*Xij	*	*Xij	*	*Xij
!	!	!	!	!	!	!	!	!	!	!LO:LB:g=original	!
=43-	=43-	=43-	=43-	=43-	=43-	=43-	=43-	=43-	=43-	=43-	=43-
2F\	4	.	8f/L	.	4.ff\	(4F\	no-	4.B-\	no-	2c/	no-
.	.	.	8cc/J	.	.	.	.	.	.	.	.
.	.	.	4cc\	.	.	4FF/)	.	.	.	.	.
.	3	.	.	.	8ff\	.	.	(<8A/	-strum	.	.
4BB-y/	.	.	8b-/L	.	8ff\L	8BB-/	-stru(m)	2B-\)	.	2d\	-strum
.	.	.	8b-/	.	8dd\	8B-\	in	.	.	.	.
4B-\	.	.	8b-/	.	8dd\	8B-\	ad-	.	.	.	.
!	!	!	!	!	!LO:TX:t=P:problem:cezura dopisana ołówkiem	!	!	!	!	!	!
.	.	.	8b-/J	.	8dd,\J	8B-\	-iu-	.	.	.	.
2F#X\	.	.	4.a/	.	4.dd\	4.F#X\	-to-	2r	.	2r	.
.	.	.	8a/	.	8dd\	8F#\	-ri-	.	.	.	.
!	!	!	!	!	!LO:TX:t=P:problem:cezura dopisana ołówkiem	!	!	!	!	!	!
[2G\	.	.	2b-/	.	2dd,\	8G\	-um	8r	.	8r	.
*	*	*	*	*	*	*	*ij	*	*	*	*
!	!	!	!	!	!	!	!	!	!	!LO:TX:b:t=adagio	!
.	.	.	.	.	.	8G\	in	8B-\	in	8g\	in
.	.	.	.	.	.	8G\	ad-	8B-\	ad-	8g\	ad-
.	.	.	.	.	.	8G\	-iu-	8B-\	-iu-	8g\	-iu-
=44-	=44-	=44-	=44-	=44-	=44-	=44-	=44-	=44-	=44-	=44-	=44-
2G\]	6 #4 2	.	2g/	.	2eeny\	4.G\	-to-	4.A/	-to-	4.c#X/	-to-
.	.	.	.	.	.	8G\	-ri-	8A/	-ri-	8c#/	-ri-
4.Fny\	6	.	[2a/	.	4.ff\	(4.Fny\	-um	2d\	-um	2f\	-um
*	*	*	*	*	*	*	*Xij	*	*	*	*
!	!	!	!	!	!LO:TX:t=P:problem:cezura dopisana ołówkiem	!	!	!	!	!	!
8G\	.	.	.	.	8bb-,\	8G\)	.	.	.	.	.
2A\	4	.	2a/]	.	2aa\	(4A\	no-	4.d\	no-	2eny\	no-
.	.	.	.	.	.	4AA/)	.	.	.	.	.
.	3	.	.	.	.	.	.	(8c#X\	-strum	.	.
!	!	!	!LO:TX:b:t=P:problem:# below	!	!	!	!	!	!	!	!
[2D/	#	.	2f#X/	.	2aa\	2D/	-strum	4d\)	.	4f#X\	-stru(m)
.	.	.	.	.	.	.	.	4r	.	8d\	et
.	.	.	.	.	.	.	.	.	.	8d\	lae-
=45-	=45-	=45-	=45-	=45-	=45-	=45-	=45-	=45-	=45-	=45-	=45-
!	!	!	!	!	!	!LO:SIC:v:t=custos GG	!	!	!	!	!
4D/]	2	.	00r	.	00r	1r	.	2r	.	8.e\	-ta-
.	.	.	.	.	.	.	.	.	.	16fny\	-bi-
!LO:TX:b:t=allegro	!	!	!	!	!	!	!	!	!	!	!
4C#X/	6	.	.	.	.	.	.	.	.	8g\	-tur
.	.	.	.	.	.	.	.	.	.	8a\	cor
4D/	.	.	.	.	.	.	.	4r	.	16f#X\LL	no-
.	.	.	.	.	.	.	.	.	.	16e\	.
.	.	.	.	.	.	.	.	.	.	16f#\	.
.	.	.	.	.	.	.	.	.	.	16d\JJ	.
!LO:TX:t=P:problem:kreska pseudotaktowa	!	!	!	!	!	!	!	!LO:TX:b:t=allegro	!	!	!
4BB-/	.	.	.	.	.	.	.	8G/	et	2g\	.
!	!	!	!	!	!	!	!	!LO:SIC:v:t=custos A	!	!	!
.	.	.	.	.	.	.	.	8G/	lae-	.	.
!	!	!	!	!	!	!LO:LB:g=original	!	!LO:LB:g=original	!	!	!
2AA/	7	.	.	.	.	2r	.	8.A/	-ta-	.	.
.	.	.	.	.	.	.	.	16B-\	-bi-	.	.
.	6	.	.	.	.	.	.	8cny\	-tur	(4f#X\	-strum
.	.	.	.	.	.	.	.	8d\	cor	.	.
[2GG/	.	.	.	.	.	4r	.	8B-\	no-	4g\)	.
.	.	.	.	.	.	.	.	8G/	-stru(m)	.	.
!	!	!	!	!	!	!LO:TX:a:t=allegro	!	!	!	!	!
.	.	.	.	.	.	8GG/	et	8r	.	8r	.
!	!	!	!	!	!	!	!	!	!	!LO:SIC:v:t=custos c	!
.	.	.	.	.	.	8GG/	lae-	8B-\	lae-	8d\	lae-
!	!	!	!	!	!	!	!	!	!	!LO:LB:g=original	!
=46-	=46-	=46-	=46-	=46-	=46-	=46-	=46-	=46-	=46-	=46-	=46-
4GG/]	2	.	.	.	.	8.AA/	-ta-	4.A/	-ta-	4.cny/	-ta-
.	.	.	.	.	.	16BB-/	-bi-	.	.	.	.
4FF#X/	6	.	.	.	.	8C/	-tur	.	.	.	.
.	.	.	.	.	.	8D/	cor	8A/	-bi-	8B-/	-bi-
4GG/	.	.	.	.	.	8BB-/	no-	4G/	-tur	4B-/	-tur
.	.	.	.	.	.	8GG/	-stru(m)	.	.	.	.
4G\	.	.	.	.	.	16G\LL	lae-	8r	.	8r	.
.	.	.	.	.	.	16F\	.	.	.	.	.
*	*	*	*	*	*	*	*	*	*ij	*	*ij
.	.	.	.	.	.	16G\	.	8B-\	lae-	8d/	lae-
.	.	.	.	.	.	16F\JJ	.	.	.	.	.
4Eny\	6 -5	.	.	.	.	8.Eny\	-ta-	8.B-\	-ta-	8.c/	-ta-
.	.	.	.	.	.	16E\	-bi-	16A/	-bi-	16c/	-bi-
!LO:TX:t=P:problem:mixed beam	!	!	!	!	!	!	!	!	!	!	!
8F\L	.	.	.	.	.	8F\	-tur	8A/	-tu	8c/	-tur
8AA/J	6	.	.	.	.	8AA/	lae-	8c\	lae-	8fny\	lae-
8BB-/L	.	.	.	.	.	8.BB-/	-ta-	8.B-\	-ta-	8.d\	-ta-
8Cny/	.	.	.	.	.	.	.	.	.	.	.
.	.	.	.	.	.	16C/	-bi-	16A/	-bi-	16e\	-bi-
8D/	.	.	.	.	.	8D/	-tur	8A/	-tur	8f\	-tur
*	*	*	*	*	*	*	*	*	*Xij	*	*Xij
8BB-/J	.	.	.	.	.	8BB-/	cor	8d\	cor	8f\	cor
=47-	=47-	=47-	=47-	=47-	=47-	=47-	=47-	=47-	=47-	=47-	=47-
2C/	4	.	2r	.	1r	16C/LL	no-	2G/	no-	4.f\	no-
.	.	.	.	.	.	16BB-/	.	.	.	.	.
.	.	.	.	.	.	16C/	.	.	.	.	.
.	.	.	.	.	.	16D/JJ	.	.	.	.	.
.	.	.	.	.	.	4C/	-stru(m)	.	.	.	.
.	3	.	.	.	.	.	.	.	.	8e\	.
4FFny/	.	.	4r	.	.	2FF/	.	2A/	-strum	2f\	-strum
!	!	!	!LO:TX:b:t=allegro	!	!	!	!	!	!	!	!
2F\	2	.	8fny/L	.	.	.	.	.	.	.	.
!	!	!	!LO:TX:t=P:problem:kreska pseudotaktowa	!	!	!	!	!	!	!	!
.	.	.	8f/J	.	.	.	.	.	.	.	.
!	!	!	!	!	!	!LO:TX:a:t=6.	!	!LO:TX:a:t=5	!	!LO:TX:a:t=7.	!
.	.	.	8.g/L	.	2r	00r	.	00r	.	00r	.
.	.	.	16a/K	.	.	.	.	.	.	.	.
4E\	6	.	8b-/	.	.	.	.	.	.	.	.
.	.	.	8cc/J	.	.	.	.	.	.	.	.
!LO:LB:g=original	!	!	!	!	!	!	!	!	!	!	!
4.F\	.	.	8a/L	.	4r	.	.	.	.	.	.
.	.	.	8f/	.	.	.	.	.	.	.	.
!	!	!	!	!	!LO:TX:b:t=allegro	!	!	!	!	!	!
.	.	.	8a/	.	8cc\L	.	.	.	.	.	.
!LO:TX:t=P:problem:kreska pseudotaktowa	!	!	!LO:TX:t=P:problem:kreska pseudotaktowa	!	!	!	!	!	!	!	!
8E\	.	.	8g/J	.	8cc\J	.	.	.	.	.	.
!	!	!	!	!	!LO:LB:g=original	!	!	!	!	!	!
=48-	=48-	=48-	=48-	=48-	=48-	=48-	=48-	=48-	=48-	=48-	=48-
2D/	7	.	8.f/L	.	8.dd\L	.	.	.	.	.	.
.	.	.	16g/K	.	16ee\K	.	.	.	.	.	.
.	.	.	8a/	.	8ff\	.	.	.	.	.	.
!	!	!	!LO:TX:b:t=P:problem:# below	!	!	!	!	!	!	!	!
!	!	!	!LO:N:acc=#	!	!	!	!	!	!	!	!
.	6\	.	8bn/J	.	8gg\J	.	.	.	.	.	.
4C/	.	.	4.cc\	.	8ee\L	.	.	.	.	.	.
.	.	.	.	.	8cc\	.	.	.	.	.	.
4AA/	6	.	.	.	8ff\	.	.	.	.	.	.
!	!	!	!LO:SIC:v:t=custos b	!	!LO:TX:t=P:problem:kreska pseudotaktowa	!	!	!	!	!	!
.	.	.	8cc\	.	8ff\J	.	.	.	.	.	.
!	!	!	!LO:LB:g=original	!	!	!	!	!	!	!	!
4BB-/	.	.	8b/L	.	4.ff\	.	.	.	.	.	.
.	.	.	8a/	.	.	.	.	.	.	.	.
4C/	.	.	8g/	.	.	.	.	.	.	.	.
.	.	.	8g/J	.	8ee\	.	.	.	.	.	.
2FF/	.	.	16a/LL	.	16ff\LL	.	.	.	.	.	.
.	.	.	16g/	.	16ee\	.	.	.	.	.	.
.	.	.	16a/	.	16ff\	.	.	.	.	.	.
.	.	.	16b/JJ	.	16gg\JJ	.	.	.	.	.	.
!	!	!	!	!	!LO:TX:t=P:problem:kreska pseudotaktowa dopisana ołówkiem	!	!	!	!	!	!
.	.	.	8a/L	.	4ff\	.	.	.	.	.	.
!	!	!	!LO:TX:t=P:problem:kreska pseudotaktowa	!	!	!	!	!	!	!	!
.	.	.	8a/J	.	.	.	.	.	.	.	.
=49-	=49-	=49-	=49-	=49-	=49-	=49-	=49-	=49-	=49-	=49-	=49-
2C/	.	.	16g/LL	.	4.ee\	.	.	.	.	.	.
.	.	.	16a/	.	.	.	.	.	.	.	.
.	.	.	16b-y/	.	.	.	.	.	.	.	.
.	.	.	16cc/JJ	.	.	.	.	.	.	.	.
.	.	.	16e/LL	.	.	.	.	.	.	.	.
.	.	.	16f/	.	.	.	.	.	.	.	.
.	.	.	16g/	.	8ee\	.	.	.	.	.	.
.	.	.	16a/JJ	.	.	.	.	.	.	.	.
2D/	.	.	16f/LL	.	4ff\	.	.	.	.	.	.
.	.	.	16a/	.	.	.	.	.	.	.	.
.	.	.	16g/	.	.	.	.	.	.	.	.
.	.	.	16a/JJ	.	.	.	.	.	.	.	.
.	.	.	16f/LL	.	8r	.	.	.	.	.	.
.	.	.	16g/	.	.	.	.	.	.	.	.
!	!	!	!	!	!LO:TX:t=P:problem:kreska pseudotaktowa	!	!	!	!	!	!
.	.	.	16a/	.	8ff\	.	.	.	.	.	.
!	!	!	!LO:TX:t=P:problem:kreska pseudotaktowa	!	!	!	!	!	!	!	!
!	!	!	!LO:TX:b:t=P:problem:# below	!	!	!	!	!	!	!	!
!	!	!	!LO:N:acc=#	!	!	!	!	!	!	!	!
.	.	.	16bn/JJ	.	.	.	.	.	.	.	.
2AA/	.	.	8.cc\L	.	16ee\LL	0r	.	1r	.	0r	.
.	.	.	.	.	16ff\	.	.	.	.	.	.
.	.	.	.	.	16gg\	.	.	.	.	.	.
.	.	.	16cc\Jk	.	16aa\JJ	.	.	.	.	.	.
.	.	.	16a\LL	.	16cc\LL	.	.	.	.	.	.
.	.	.	16b\	.	16dd\	.	.	.	.	.	.
.	.	.	16cc\	.	16ee\	.	.	.	.	.	.
.	.	.	16dd\JJ	.	16ff\JJ	.	.	.	.	.	.
2BB-/	.	.	16b\LL	.	16dd\LL	.	.	.	.	.	.
.	.	.	16cc\	.	16ee\	.	.	.	.	.	.
.	.	.	16dd\	.	16ff\	.	.	.	.	.	.
.	.	.	16cc\JJ	.	16ee\JJ	.	.	.	.	.	.
.	.	.	16b\LL	.	16dd\LL	.	.	.	.	.	.
.	.	.	16a\	.	16cc\	.	.	.	.	.	.
.	.	.	16g\	.	16b-\	.	.	.	.	.	.
!	!	!	!LO:TX:t=P:problem:kreska pseudotaktowa	!	!LO:TX:t=P:problem:kreska pseudotaktowa	!	!	!	!	!	!
.	.	.	16f\JJ	.	16a\JJ	.	.	.	.	.	.
=50-	=50-	=50-	=50-	=50-	=50-	=50-	=50-	=50-	=50-	=50-	=50-
4C/	.	.	16e/LL	.	16g/LL	.	.	2r	.	.	.
.	.	.	16f/	.	16a/	.	.	.	.	.	.
.	.	.	16e/	.	16g/	.	.	.	.	.	.
.	.	.	16f/JJ	.	16a/JJ	.	.	.	.	.	.
4.GG/	.	.	16g/LL	.	16b-/LL	.	.	.	.	.	.
.	.	.	16a/	.	16cc/	.	.	.	.	.	.
.	.	.	16g/	.	16b-/	.	.	.	.	.	.
.	.	.	16a/JJ	.	16cc/JJ	.	.	.	.	.	.
.	.	.	8b-y/L	.	8dd\L	.	.	4r	.	.	.
8C/	.	.	16a/L	.	16cc\L	.	.	.	.	.	.
.	.	.	16g/JJ	.	16b-\JJ	.	.	.	.	.	.
4D/	4	.	8.g/L	.	8.a/L	.	.	8r	.	.	.
!	!	!	!	!	!	!	!	!LO:SIC:v:t=custos B	!	!	!
.	.	.	.	.	.	.	.	8d\	lae-	.	.
!	!	!	!LO:TX:b:t=P:problem:# below	!	!	!	!	!	!	!	!
!	!	!	!LO:N:acc=#	!	!LO:TX:t=P:problem:kreska pseudotaktowa dopisana ołówkiem	!	!	!	!	!	!
.	3	.	16f#X/Jk	.	16a/Jk	.	.	.	.	.	.
!	!	!	!	!	!	!	!	!LO:LB:g=original	!	!	!
!	!	!	!	!	!LO:N:acc=#	!	!	!LO:N:acc=#	!	!	!
4GG/	#	.	4g/	.	4bn/	2r	.	16Bn\LL	-ta-	1r	.
.	.	.	.	.	.	.	.	16c\	.	.	.
.	.	.	.	.	.	.	.	16d\	.	.	.
.	.	.	.	.	.	.	.	16e\JJ	.	.	.
4AA/	6\	.	4r	.	4r	.	.	16F#X/LL	.	.	.
.	.	.	.	.	.	.	.	16G/	.	.	.
.	.	.	.	.	.	.	.	16A/	.	.	.
!	!	!	!	!	!	!	!	!LO:TX:b:t=P:problem:♭ below	!	!	!
!	!	!	!	!	!	!	!	!LO:N:acc=#	!	!	!
.	.	.	.	.	.	.	.	16BnX/JJ	.	.	.
!LO:TX:t=P:problem:kreska pseudotaktowa	!	!	!	!	!LO:TX:t=P:problem:kreska pseudotaktowa	!	!	!	!	!	!
!LO:N:acc=#	!	!	!	!	!	!	!	!	!	!	!
2BBn/	6	.	2r	.	2r	4r	.	16G/LL	.	.	.
.	.	.	.	.	.	.	.	16A/	.	.	.
.	.	.	.	.	.	.	.	16G/	.	.	.
.	.	.	.	.	.	.	.	16A/JJ	.	.	.
!	!	!	!	!	!	!	!	!LO:N:acc=#	!	!	!
.	.	.	.	.	.	8r	.	16BnX\LL	.	.	.
.	.	.	.	.	.	.	.	16d\	.	.	.
!	!	!	!	!	!	!LO:SIC:v:t=custos E	!	!	!	!	!
.	.	.	.	.	.	8G\	lae-	16c\	.	.	.
.	.	.	.	.	.	.	.	16B\JJ	.	.	.
!	!	!	!	!	!	!LO:LB:g=original	!	!	!	!	!
=51-	=51-	=51-	=51-	=51-	=51-	=51-	=51-	=51-	=51-	=51-	=51-
4C/	.	.	00r	.	00r	16E\LL	-ta-	8.e\	.	4r	.
.	.	.	.	.	.	16F\	.	.	.	.	.
.	.	.	.	.	.	16G\	.	.	.	.	.
.	.	.	.	.	.	16A\JJ	.	16e\	-bi-	.	.
!LO:N:acc=#	!	!	!	!	!	!LO:N:acc=#	!	!	!	!	!
4BBn/	6	.	.	.	.	16BBn/LL	.	8d\	-tur	8r	.
.	.	.	.	.	.	16C/	.	.	.	.	.
.	.	.	.	.	.	16D/	.	8d\	cor	8g\	lae-
.	.	.	.	.	.	16E/JJ	.	.	.	.	.
4C/	.	.	.	.	.	8.C/	.	8c\	no-	16e\LL	-ta-
.	.	.	.	.	.	.	.	.	.	16f\	.
.	.	.	.	.	.	.	.	8c\	-stru(m)	16g\	.
.	.	.	.	.	.	16C/	-bi-	.	.	16a\JJ	.
!	!	!	!	!	!	!	!	!	!	!LO:N:acc=#	!
4D/	6\	.	.	.	.	8D/	-tur	4r	.	16Bn/LL	.
.	.	.	.	.	.	.	.	.	.	16c/	.
.	.	.	.	.	.	8D/	cor	.	.	16d/	.
.	.	.	.	.	.	.	.	.	.	16e/JJ	.
2E\	.	.	.	.	.	8E\	no-	2r	.	16c/LL	.
.	.	.	.	.	.	.	.	.	.	16d/JJ	.
.	.	.	.	.	.	8E\	-stru(m)	.	.	(16c/LL	-bi-
.	.	.	.	.	.	.	.	.	.	16d/JJ)	.
.	.	.	.	.	.	8r	.	.	.	8e\	-tur
*	*	*	*	*	*	*	*ij	*	*	*	*
!	!	!	!	!	!	!	!	!	!	!LO:SIC:v:t=custos a	!
.	.	.	.	.	.	8E\	lae-	.	.	8cc\	lae-
!	!	!	!	!	!	!	!	!	!	!LO:LB:g=original	!
4F\	.	.	.	.	.	8.F\	-ta-	4r	.	16a\LL	-ta-
.	.	.	.	.	.	.	.	.	.	16b-\	.
.	.	.	.	.	.	.	.	.	.	16cc\	.
.	.	.	.	.	.	16F\	-bi-	.	.	16dd\JJ	.
!LO:TX:t=P:problem:kreska pseudotaktowa	!	!	!	!	!	!	!	!	!	!	!
4G\	# 6 -	.	.	.	.	8.G\	-tur	8r	.	16e\LL	.
.	.	.	.	.	.	.	.	.	.	16f\JJ	.
.	.	.	.	.	.	.	.	8G/	lae-	(16g\LL	-bi-
.	.	.	.	.	.	16G\	cor	.	.	16a\JJ)	.
=52-	=52-	=52-	=52-	=52-	=52-	=52-	=52-	=52-	=52-	=52-	=52-
4F\	.	.	.	.	.	8F\	no-	8.A/	-ta-	8f\	-tur
.	.	.	.	.	.	8F\	-strum	.	.	8a\	cor
*	*	*	*	*	*	*	*Xij	*	*	*	*
.	.	.	.	.	.	.	.	16A/	-bi-	.	.
4A\	.	.	.	.	.	8r	.	8B-y\	-tur	16e\LL	no-
.	.	.	.	.	.	.	.	.	.	16f\	.
!	!	!	!	!	!	!	!	!LO:SIC:v:t=custos A	!	!	!
.	.	.	.	.	.	8A\	cor	8B-\	cor	16e\	.
.	.	.	.	.	.	.	.	.	.	16f\JJ	.
!	!	!	!	!	!	!	!	!LO:LB:g=original	!	!	!
4E\	6	.	.	.	.	16E\LL	no-	8A/	no-	8g\L	.
.	.	.	.	.	.	16F\	.	.	.	.	.
.	.	.	.	.	.	16E\	.	16A/	-stru(m)	16f\L	.
.	.	.	.	.	.	16F\JJ	.	16f\	cor	16e\JJ	.
4G\	#	.	.	.	.	8G\L	.	16c\LL	no-	16d\LL	.
.	.	.	.	.	.	.	.	16d\	.	16e\	.
.	.	.	.	.	.	16F\L	.	16c\	.	16d\	.
!	!	!	!	!	!	!LO:SIC:v:t=custos D	!	!	!	!	!
.	.	.	.	.	.	16E\JJ	.	16d\JJ	.	16e\JJ	.
!	!	!	!	!	!	!LO:LB:g=original	!	!	!	!	!
4D/	.	.	.	.	.	16D\LL	.	8e\L	.	8f\L	.
.	.	.	.	.	.	16E\	.	.	.	.	.
.	.	.	.	.	.	16D\	.	16d\L	.	16e\L	.
.	.	.	.	.	.	16E\JJ	.	16c\JJ	.	16d\JJ	.
!	!	!	!	!	!	!	!	!LO:N:acc=#	!	!	!
4F\	.	.	.	.	.	8F\L	.	16Bn\LL	.	16c\LL	.
.	.	.	.	.	.	.	.	16c\	.	16d\	.
.	.	.	.	.	.	16E\L	.	16B\	.	16c\	.
.	.	.	.	.	.	16D\JJ	.	16c\JJ	.	16d\JJ	.
4C/	.	.	.	.	.	8C/	.	8d\L	.	8e\	.
.	.	.	.	.	.	8C/	-stru(m)	16c\L	.	8e\	-strum
.	.	.	.	.	.	.	.	16B\JJ	.	.	.
4E\	6	.	.	.	.	8r	.	16A\LL	.	8r	.
.	.	.	.	.	.	.	.	16B\	.	.	.
.	.	.	.	.	.	8E\	lae-	16A\	.	8cc\	lae-
.	.	.	.	.	.	.	.	16B\JJ	.	.	.
=53-	=53-	=53-	=53-	=53-	=53-	=53-	=53-	=53-	=53-	=53-	=53-
2F\	.	.	1r	.	2r	8.F\	-ta-	8c\	.	8a\	-ta-
.	.	.	.	.	.	.	.	8c\	-stru(m)	8g\	-bi-
.	.	.	.	.	.	16F\	-bi-	.	.	.	.
.	.	.	.	.	.	8F\	-tur	8r	.	8f\	-tur
.	.	.	.	.	.	8G\	cor	8G/	lae-	8e\	cor
2G\	4	.	.	.	4r	(4G\	no-	8A/	-ta-	16d\LL	no-
.	.	.	.	.	.	.	.	.	.	16c\	.
!	!	!	!	!	!	!	!	!LO:N:acc=#	!	!	!
.	3	.	.	.	.	.	.	8Bn\	-bi-	16d\	.
.	.	.	.	.	.	.	.	.	.	16e\JJ	.
.	.	.	.	.	8r	4GG/)	.	8c\	-tur	4d\	.
!	!	!	!	!	!LO:TX:t=P:problem:kreska pseudotaktowa	!	!	!	!	!	!
.	.	.	.	.	8gg\	.	.	8c\	cor	.	.
4C/	.	.	2r	.	16ee\LL	4C/	-strum	4.c\	nos-	4e\	-strum
.	.	.	.	.	16ff\	.	.	.	.	.	.
.	.	.	.	.	16gg\	.	.	.	.	.	.
.	.	.	.	.	16aa\JJ	.	.	.	.	.	.
!	!	!	!	!	!LO:TX:a:t=P:problem:# above	!	!	!	!	!	!
!	!	!	!	!	!LO:N:acc=#	!	!	!	!	!	!
4D/	#6	.	.	.	16b-\LL	4r	.	.	.	4r	.
.	.	.	.	.	16cc\	.	.	.	.	.	.
!	!	!	!	!	!	!	!	!LO:N:acc=#	!	!	!
.	.	.	.	.	16dd\	.	.	(8Bn\	-tr(um)	.	.
.	.	.	.	.	16ee\JJ	.	.	.	.	.	.
!	!	!	!	!	!LO:LB:g=original	!	!	!	!	!	!
4.C/	.	.	4r	.	16cc\LL	2r	.	4c\)	.	2r	.
.	.	.	.	.	16dd\	.	.	.	.	.	.
.	.	.	.	.	16cc\	.	.	.	.	.	.
.	.	.	.	.	16dd\JJ	.	.	.	.	.	.
.	.	.	8r	.	8ee\L	.	.	4r	.	.	.
!LO:TX:t=P:problem:kreska pseudotaktowa	!	!	!LO:SIC:v:t=custos a	!	!	!	!	!	!	!	!
8C/	.	.	8cc\	.	16ff\L	.	.	.	.	.	.
!	!	!	!	!	!LO:TX:t=P:problem:kreska pseudotaktowa	!	!	!	!	!	!
.	.	.	.	.	16gg\JJ	.	.	.	.	.	.
!	!	!	!LO:LB:g=original	!	!	!	!	!	!	!	!
=54-	=54-	=54-	=54-	=54-	=54-	=54-	=54-	=54-	=54-	=54-	=54-
!	!	!	!	!	!	!LO:TX:a:t=3.	!	!LO:TX:b:t=2	!	!LO:TX:b:t=Verte	!
4F\	.	.	16a\LL	.	4aa\	0r	.	0r	.	1r	.
.	.	.	16b-\	.	.	.	.	.	.	.	.
.	.	.	16cc\	.	.	.	.	.	.	.	.
.	.	.	16dd\JJ	.	.	.	.	.	.	.	.
4G\	# 6 -	.	16e/LL	.	4bb-\	.	.	.	.	.	.
.	.	.	16fny/	.	.	.	.	.	.	.	.
.	.	.	16g/	.	.	.	.	.	.	.	.
.	.	.	16a/JJ	.	.	.	.	.	.	.	.
!	!	!	!LO:TX:t=P:problem:mixed beam	!	!	!	!	!	!	!	!
4F\	.	.	8.f/L	.	8.aa\L	.	.	.	.	.	.
.	.	.	16ff\Jk	.	16aa\Jk	.	.	.	.	.	.
4A\	.	.	16cc\LL	.	16ee\LL	.	.	.	.	.	.
.	.	.	16dd\	.	16ff\	.	.	.	.	.	.
.	.	.	16cc\	.	16ee\	.	.	.	.	.	.
!	!	!	!LO:TX:t=P:problem:kreska pseudotaktowa	!	!LO:TX:t=P:problem:kreska pseudotaktowa	!	!	!	!	!	!
.	.	.	16dd\JJ	.	16ff\JJ	.	.	.	.	.	.
!	!	!	!	!	!	!	!	!	!	!LO:PB:g=original	!
4E\	6	.	8ee\L	.	8gg\L	.	.	.	.	2r	.
.	.	.	16dd\L	.	16ff\L	.	.	.	.	.	.
.	.	.	16cc\JJ	.	16ee\JJ	.	.	.	.	.	.
!	!	!	!LO:N:acc=#	!	!	!	!	!	!	!	!
4G\	.	.	16bn\LL	.	16dd\LL	.	.	.	.	.	.
.	.	.	16cc\	.	16ee\	.	.	.	.	.	.
.	.	.	16b\	.	16dd\	.	.	.	.	.	.
.	.	.	16cc\JJ	.	16ee\JJ	.	.	.	.	.	.
!LO:TX:t=P:problem:mixed beam	!	!	!	!	!	!	!	!	!	!	!
8D\L	.	.	8dd\L	.	8ff\L	.	.	.	.	4r	.
8G\	.	.	8dd\	.	8ee\	.	.	.	.	.	.
8A\	.	.	8.dd\	.	8.ee\	.	.	.	.	8r	.
*	*	*	*	*	*	*	*	*	*	*all\right	*
!LO:SIC:v:t=custos D	!	!	!	!	!	!	!	!	!	!LO:TX:t=P:problem:kreska pseudotaktowa	!
8AA/J	.	.	.	.	.	.	.	.	.	8a\	lae-
!	!	!	!LO:TX:a:t=P:problem:# above	!	!LO:TX:t=P:problem:kreska pseudotaktowa	!	!	!	!	!	!
.	.	.	16cc#X\Jk	.	16dd\Jk	.	.	.	.	.	.
!LO:LB:g=original	!	!	!	!	!	!	!	!	!	!	!
=55-	=55-	=55-	=55-	=55-	=55-	=55-	=55-	=55-	=55-	=55-	=55-
!	!	!	!	!	!	!LO:TX:a:t=NB \nvide +	!	!	!	!	!
!	!	!	!	!	!	!LO:TX:t=P:problem:wykreślone takty	!	!	!	!	!
4D/	#	.	4dd\	.	4ff#X\	1r	.	2r	.	16f#X\LL	-ta-
.	.	.	.	.	.	.	.	.	.	16g\	.
.	.	.	.	.	.	.	.	.	.	16a\	.
.	.	.	.	.	.	.	.	.	.	16b-\JJ	.
4E\	# 6	.	4g/	.	4gg\	.	.	.	.	16c#X\LL	.
.	.	.	.	.	.	.	.	.	.	16d\	.
.	.	.	.	.	.	.	.	.	.	16e\	.
.	.	.	.	.	.	.	.	.	.	16f#\JJ	.
2D/	#	.	4.dd\	.	4.ff#\	.	.	4r	.	16d\LL	.
.	.	.	.	.	.	.	.	.	.	16e\	.
.	.	.	.	.	.	.	.	.	.	16d\	.
.	.	.	.	.	.	.	.	.	.	16e\JJ	.
.	.	.	.	.	.	.	.	8r	.	16f#X\LL	.
.	.	.	.	.	.	.	.	.	.	16a\	.
!	!	!	!LO:TX:t=P:problem:kreska pseudotaktowa	!	!LO:TX:t=P:problem:kreska pseudotaktowa	!	!	!LO:SIC:v:t=custos B	!	!	!
.	.	.	8dd\	.	8ff#\	.	.	8d\	lae-	16g\	.
!	!	!	!	!	!	!	!	!	!	!LO:TX:t=P:problem:kreska pseudotaktowa	!
.	.	.	.	.	.	.	.	.	.	16f#\JJ	.
!	!	!	!	!	!	!LO:LB:g=original	!	!LO:LB:g=original	!	!	!
!	!	!	!	!	!LO:N:acc=#	!LO:TX:a:t=NB \nvide +	!	!LO:N:acc=#	!	!	!
4GG/	#	.	4.dd\	.	8.bbn\	2r	.	16Bn\LL	-ta-	8.g\	.
.	.	.	.	.	.	.	.	16c\	.	.	.
.	.	.	.	.	.	.	.	16d\	.	.	.
.	.	.	.	.	16bb\	.	.	16e\JJ	.	16g\	-bi-
4AA/	# 6	.	.	.	8aa\L	.	.	16F#X/LL	.	8.cny/	-tur
.	.	.	.	.	.	.	.	16G/	.	.	.
.	.	.	8ccny\	.	8aa\J	.	.	16A/	.	.	.
!	!	!	!	!	!	!	!	!LO:N:acc=#	!	!	!
.	.	.	.	.	.	.	.	16Bn/JJ	.	16c/	cor
!	!	!	!LO:N:acc=#	!	!LO:TX:a:t=P:problem:# above	!	!	!	!	!	!
!LO:TX:t=P:problem:kreska pseudotaktowa	!	!	!	!	!LO:N:acc=#	!	!	!	!	!	!
2GG/	.	.	4.bn/	.	4bbn\	4r	.	16G/LL	.	4g\	no-
.	.	.	.	.	.	.	.	16A/	.	.	.
.	.	.	.	.	.	.	.	16G/	.	.	.
.	.	.	.	.	.	.	.	16A/JJ	.	.	.
!	!	!	!	!	!LO:TX:t=P:problem:kreska pseudotaktowa	!	!	!LO:N:acc=#	!	!LO:TX:t=P:problem:kreska pseudotaktowa	!
.	.	.	.	.	4gg\	8r	.	8Bn\L	.	4g\	-stru(m)
!	!	!	!	!	!	!LO:TX:t=P:problem:kreska pseudotaktowa	!	!	!	!	!
.	.	.	8b/	.	.	8G\	lae-	16c\L	.	.	.
.	.	.	.	.	.	.	.	16d\JJ	.	.	.
=56-	=56-	=56-	=56-	=56-	=56-	=56-	=56-	=56-	=56-	=56-	=56-
4C/	.	.	8cc\L	.	4gg\	16E\LL	-ta-	8.e\	.	4r	.
.	.	.	.	.	.	16F\	.	.	.	.	.
.	.	.	8cc\J	.	.	16G\	.	.	.	.	.
.	.	.	.	.	.	16A\JJ	.	16e\	-bi-	.	.
!LO:N:acc=#	!	!	!	!	!	!LO:N:acc=#	!	!	!	!	!
4BBn/	6	.	4dd\	.	8r	16BBn/LL	.	4d\	-tur	8r	.
.	.	.	.	.	.	16C/	.	.	.	.	.
.	.	.	.	.	8gg\	16D/	.	.	.	8d\	lae-
.	.	.	.	.	.	16E/JJ	.	.	.	.	.
4C/	.	.	4g/	.	16ee\LL	8.C/	.	2r	.	8.e\	-ta-
.	.	.	.	.	16ffny\	.	.	.	.	.	.
.	.	.	.	.	16gg\	.	.	.	.	.	.
.	.	.	.	.	16aa\JJ	16C/	-bi-	.	.	16e\	-bi-
!LO:TX:t=P:problem:kreska pseudotaktowa	!	!	!	!	!LO:N:acc=#	!	!	!	!	!	!
4D/	# 6	.	4r	.	16bn\LL	8D/	-tur	.	.	8fny\	-tur
.	.	.	.	.	16cc\	.	.	.	.	.	.
*	*	*	*	*	*	*	*	*	*	*	*ij
!	!	!	!	!	!	!LO:TX:t=P:problem:kreska pseudotaktowa	!	!	!	!LO:TX:t=P:problem:kreska pseudotaktowa	!
.	.	.	.	.	16dd\	8D/	cor	.	.	8f\	lae-
!	!	!	!	!	!LO:TX:t=P:problem:kreska pseudotaktowa	!	!	!	!	!	!
.	.	.	.	.	16ee\JJ	.	.	.	.	.	.
2C/	.	.	4r	.	16cc\LL	8C/	no-	4r	.	8.e\	-ta-
.	.	.	.	.	16dd\	.	.	.	.	.	.
.	.	.	.	.	16cc\	8C/	-stru(m)	.	.	.	.
.	.	.	.	.	16dd\JJ	.	.	.	.	16e\	-bi-
.	.	.	8r	.	8.ee\L	8r	.	8r	.	8e\	-tur
.	.	.	8cc\	.	.	8C/	lae-	8c\	lae-	8g\	lae-
.	.	.	.	.	16ee\Jk	.	.	.	.	.	.
!	!	!	!	!	!LO:TX:t=P:problem:mixed beam	!	!	!	!	!LO:LB:g=original	!
4F\	.	.	16a/LL	.	16ff\LL	8.F\	-ta-	8.c\	-ta-	8.a\	-ta-
.	.	.	16b-y/	.	16gg\J	.	.	.	.	.	.
.	.	.	16cc/	.	8aa\	.	.	.	.	.	.
.	.	.	16dd/JJ	.	.	16F\	-bi-	16c\	-bi-	16a\	-bi-
!LO:TX:t=P:problem:kreska pseudotaktowa	!	!	!	!	!	!	!	!	!	!	!
4G\	# 6 -	.	16e/LL	.	8bb-y\	8G\	-tur	8B-y\	-tur	8.g\	-tur
.	.	.	16f/	.	.	.	.	.	.	.	.
*	*	*	*	*	*	*	*ij	*	*ij	*	*
!	!	!	!	!	!LO:SIC:v:t=custos ff	!LO:TX:t=P:problem:kreska pseudotaktowa	!	!	!	!	!
.	.	.	16g/	.	8b-y/J	8G\	lae-	8B-\	lae-	.	.
!	!	!	!LO:TX:t=P:problem:kreska pseudotaktowa	!	!	!	!	!	!	!LO:TX:t=P:problem:kreska pseudotaktowa	!
.	.	.	16a/JJ	.	.	.	.	.	.	16g\	lae-
!	!	!	!	!	!LO:LB:g=original	!	!	!	!	!	!
=57-	=57-	=57-	=57-	=57-	=57-	=57-	=57-	=57-	=57-	=57-	=57-
2F\	.	.	4.f/	.	4ff\	8.F\	-ta-	8.A/	-ta-	8.a\	-ta-
.	.	.	.	.	.	16F\	-bi-	16B-\	-bi-	16a\	-bi-
.	.	.	.	.	2aa\	4F\	-tur	8c\	-tur	8a\	-tur
*	*	*	*	*	*	*	*Xij	*	*Xij	*	*Xij
.	.	.	8cc\	.	.	.	.	8f\	cor	8a\	cor
4A\	.	.	4.cc\	.	.	8r	.	16c\LL	no-	16e\LL	no-
.	.	.	.	.	.	.	.	16d\	.	16f\	.
.	.	.	.	.	.	8A\	cor	16c\	.	16e\	.
.	.	.	.	.	.	.	.	16d\JJ	.	16f\JJ	.
!LO:TX:t=P:problem:kreska pseudotaktowa	!	!	!	!	!LO:TX:t=P:problem:kreska pseudotaktowa dopisana ołówkiem	!	!	!	!	!	!
4E\	6	.	.	.	[4gg\	16E\LL	no-	8e\L	.	8g\L	.
.	.	.	.	.	.	16F\	.	.	.	.	.
.	.	.	8cc\	.	.	16E\	.	16d\L	.	16f\L	.
!	!	!	!	!	!	!	!	!LO:SIC:v:t=custos B	!	!	!
.	.	.	.	.	.	16F\JJ	.	16c\JJ	.	16e\JJ	.
!	!	!	!	!	!	!	!	!LO:LB:g=original	!	!	!
!	!	!	!	!	!	!	!	!LO:N:acc=#	!	!	!
4G\	#	.	4g/	.	4gg\]	8G\L	.	16Bn\LL	.	16d\LL	.
.	.	.	.	.	.	.	.	16c\	.	16e\	.
.	.	.	.	.	.	16F\L	.	16B\	.	16d\	.
.	.	.	.	.	.	16E\JJ	.	16c\JJ	.	16e\JJ	.
!LO:TX:t=P:problem:kreska pseudotaktowa	!	!	!	!	!	!	!	!	!	!	!
4D/	.	.	8r	.	[4ff\	16D\LL	.	8d\L	.	8f\L	.
.	.	.	.	.	.	16E\	.	.	.	.	.
.	.	.	8a/	.	.	16D\	.	16c\L	.	16e\L	.
.	.	.	.	.	.	16E\JJ	.	16B\JJ	.	16d\JJ	.
4F\	.	.	4.a/	.	4ff\]	8F\L	.	16A\LL	.	16c\LL	.
.	.	.	.	.	.	.	.	16B\	.	16d\	.
.	.	.	.	.	.	16E\L	.	16A\	.	16c\	.
.	.	.	.	.	.	16D\JJ	.	16B\JJ	.	16d\JJ	.
!LO:TX:t=P:problem:kreska pseudotaktowa	!	!	!	!	!LO:TX:t=P:problem:kreska pseudotaktowa dopisana ołówkiem	!LO:SIC:v:t=custos C	!	!	!	!	!
4C/	.	.	.	.	[4ee\	4C/	.	16c\LL	.	16e\LL	.
.	.	.	.	.	.	.	.	16d\	.	16f\	.
.	.	.	8dd\	.	.	.	.	16c\	.	16e\	.
!	!	!	!	!	!	!	!	!	!	!LO:TX:t=P:problem:kreska pseudotaktowa	!
.	.	.	.	.	.	.	.	16d\JJ	.	16f\JJ	.
!	!	!	!LO:LB:g=original	!	!	!LO:LB:g=original	!	!	!	!	!
=58-	=58-	=58-	=58-	=58-	=58-	=58-	=58-	=58-	=58-	=58-	=58-
2C/	.	.	4.g/	.	4ee\]	4C/	-stru(m)	8e\	.	8g\	.
.	.	.	.	.	.	.	.	8e\	-strum	8g\	-stru(m)
.	.	.	.	.	4gg\	8r	.	8r	.	8r	.
.	.	.	8cc\	.	.	8C/	lae-	8e\	lae-	8g\	lae-
4F\	.	.	4.a/	.	4.ff\	8F\	-ta-	8f\	-ta-	8a\	-ta-
.	.	.	.	.	.	8G\	-bi-	8e\	-bi-	8g\	-bi-
!LO:TX:t=P:problem:kreska pseudotaktowa	!	!	!	!	!	!	!	!	!	!	!
4A\	.	.	.	.	.	8A\	-tur	8d\	-tur	8f\	-tur
!	!	!	!	!	!LO:TX:t=P:problem:kreska pseudotaktowa dopisana ołówkiem	!LO:TX:t=P:problem:kreska pseudotaktowa	!	!	!	!LO:TX:t=P:problem:kreska pseudotaktowa	!
.	.	.	8a/	.	8cc\	8A\	cor	8c\	cor	8e\	cor
4F\	6	.	4a/	.	4.dd\	(4F\	no-	4.c\	no-	16d\LL	no-
.	.	.	.	.	.	.	.	.	.	16c\	.
.	.	.	.	.	.	.	.	.	.	16d\	.
.	.	.	.	.	.	.	.	.	.	16e\JJ	.
4G\	4	.	4g/	.	.	4G\)	.	.	.	4d\	.
!	!	!	!	!	!	!	!	!LO:N:acc=#	!	!	!
.	3	.	.	.	8dd\	.	.	(8Bn\	-stru(m)	.	.
!LO:TX:t=P:problem:kreska pseudotaktowa	!	!	!	!	!	!	!	!	!	!	!
2C/	.	.	4g/	.	4cc\	8C/	-stru(m)	4c\)	.	4e\	-strum
.	.	.	.	.	.	8c\	lae-	.	.	.	.
!	!	!	!LO:TX:t=P:problem:kreska pseudotaktowa	!	!LO:TX:t=P:problem:kreska pseudotaktowa dopisana ołówkiem	!	!	!	!	!	!
.	.	.	4r	.	4r	16G\LL	-ta-	4r	.	4r	.
.	.	.	.	.	.	16A\	.	.	.	.	.
.	.	.	.	.	.	16G\	.	.	.	.	.
!	!	!	!	!	!	!LO:TX:t=P:problem:kreska pseudotaktowa	!	!	!	!	!
.	.	.	.	.	.	16A\JJ	.	.	.	.	.
!	!	!	!	!	!	!	!	!	!	!LO:LB:g=original	!
=59-	=59-	=59-	=59-	=59-	=59-	=59-	=59-	=59-	=59-	=59-	=59-
!	!	!	!	!	!	!	!	!LO:TX:a:t=3.	!	!	!
4G\	.	.	8r	.	8r	8.B-\	.	0r	.	0r	.
.	.	.	8gg\	.	8bb-\	.	.	.	.	.	.
.	.	.	.	.	.	16B-\	-bi-	.	.	.	.
4B-\	.	.	16dd\LL	.	16ff\LL	8B-\	-tur	.	.	.	.
.	.	.	16ee\	.	16gg\	.	.	.	.	.	.
.	.	.	16dd\	.	16ff\	8B-\	lae-	.	.	.	.
.	.	.	16ee\JJ	.	16gg\JJ	.	.	.	.	.	.
4F\	.	.	8ff\L	.	8aa\L	16F\LL	-ta-	.	.	.	.
.	.	.	.	.	.	16G\	.	.	.	.	.
.	.	.	16ee\L	.	16gg\L	16F\	.	.	.	.	.
.	.	.	16dd\JJ	.	16ff\JJ	16G\JJ	.	.	.	.	.
!LO:TX:t=P:problem:kreska pseudotaktowa	!	!	!	!	!	!	!	!	!	!	!
4A\	.	.	16cc\LL	.	16ee\LL	8A\L	.	.	.	.	.
.	.	.	16dd\	.	16ff\	.	.	.	.	.	.
.	.	.	16cc\	.	16ee\	16G\L	.	.	.	.	.
!	!	!	!LO:TX:t=P:problem:kreska pseudotaktowa	!	!LO:TX:t=P:problem:kreska pseudotaktowa	!LO:TX:t=P:problem:kreska pseudotaktowa	!	!	!	!	!
.	.	.	16dd\JJ	.	16ff\JJ	16F\JJ	.	.	.	.	.
4E\	.	.	8ee\L	.	8gg\L	16E\LL	.	.	.	.	.
.	.	.	.	.	.	16F\	.	.	.	.	.
.	.	.	16dd\L	.	16ff\L	16E\	.	.	.	.	.
.	.	.	16cc\JJ	.	16ee\JJ	16F\JJ	.	.	.	.	.
!	!	!	!LO:N:acc=#	!	!	!	!	!	!	!	!
4G\	#	.	16bn\LL	.	16dd\LL	8G\L	.	.	.	.	.
.	.	.	16cc\	.	16ee\	.	.	.	.	.	.
.	.	.	16b\	.	16dd\	16F\L	.	.	.	.	.
.	.	.	16cc\JJ	.	16ee\JJ	16E\JJ	.	.	.	.	.
4.D/	.	.	8.dd\L	.	8.ff\L	8.D/	.	.	.	.	.
.	.	.	16dd\K	.	16ff\K	16D/	-bi-	.	.	.	.
.	.	.	8dd\	.	8ff\	8D/	-tur	.	.	.	.
!LO:TX:t=P:problem:kreska pseudotaktowa	!	!	!LO:TX:t=P:problem:kreska pseudotaktowa	!	!LO:TX:t=P:problem:kreska pseudotaktowa	!LO:TX:t=P:problem:kreska pseudotaktowa	!	!	!	!	!
8AA/	6	.	8cc\J	.	8ff\J	8AA/	lae-	.	.	.	.
=60-	=60-	=60-	=60-	=60-	=60-	=60-	=60-	=60-	=60-	=60-	=60-
4BB-y/	.	.	8b-y/L	.	8dd\L	8BB-y/	-ta-	1r	.	1r	.
.	.	.	8a/	.	8cc\	8C/	-bi-	.	.	.	.
4D/	.	.	8g/	.	8b-\	8.D/	-tur	.	.	.	.
.	.	.	8f/J	.	8a\J	.	.	.	.	.	.
.	.	.	.	.	.	16D/	cor	.	.	.	.
!	!	!	!	!	!	!LO:LB:g=original	!	!	!	!	!
4BB-/	.	.	4.f/	.	4.g/	(4BB-/	no-	.	.	.	.
!LO:TX:t=P:problem:kreska pseudotaktowa	!	!	!	!	!	!LO:TX:t=P:problem:kreska pseudotaktowa	!	!	!	!	!
4C/	.	.	.	.	.	4C/)	.	.	.	.	.
!	!	!	!	!	!LO:TX:t=P:problem:kreska pseudotaktowa dopisana ołówkiem	!	!	!	!	!	!
.	.	.	8e/	.	8g/	.	.	.	.	.	.
!LO:TX:b:t=tutti	!	!	!	!	!LO:TX:t=P:problem:mixed beam	!	!	!	!	!	!
4F\	.	.	8f/L	.	8a/L	8FF/	-stru(m),	8r	.	8r	.
.	.	.	8cc/J	.	8ff\J	8F\	lae-	8c\	lae-	8a\	lae-
4E\	6	.	8.cc\L	.	8.gg\L	8.E\	-ta-	8.c\	-ta-	8.g\	-ta-
!	!	!	!	!	!	!LO:TX:t=P:problem:kreska pseudotaktowa	!	!LO:SIC:v:t=custos c	!	!	!
.	.	.	16cc\Jk	.	16gg\Jk	16E\	-bi-	16c\	-bi-	16g\	-bi-
!	!	!	!	!	!	!	!	!LO:LB:g=original	!	!	!
4F\	.	.	8cc\L	.	8ff\L	8F\	-tur	8c\	-tur	8a\	-tur
*	*	*	*	*	*	*	*ij	*	*ij	*	*ij
.	.	.	8cc\J	.	8ff\J	8FF/	lae-	8A/	lae-	8f\	lae-
4C/	.	.	8.cc\L	.	8.gg\L	8.C/	-ta-	8.G/	-ta-	8.f\	-ta-
!	!	!	!	!	!LO:TX:t=P:problem:kreska pseudotaktowa dopisana ołówkiem	!LO:TX:t=P:problem:kreska pseudotaktowa	!	!	!	!LO:TX:t=P:problem:kreska pseudotaktowa	!
.	.	.	16cc\Jk	.	16gg\Jk	16C/	-bi-	16G/	-bi-	16e\	-bi-
=61-	=61-	=61-	=61-	=61-	=61-	=61-	=61-	=61-	=61-	=61-	=61-
2FF/	.	.	4.cc\	.	4.ff\	4.FF/	-tur	4.A/	-tur	4.f\	-tur
!	!	!	!	!	!	!LO:TX:t=P:problem:kreska pseudotaktowa	!	!	!	!	!
.	.	.	8cc\	.	8ff\	8FF/	lae-	8A/	lae-	8a\	lae-
!	!	!	!	!	!LO:TX:t=P:problem:kreska pseudotaktowa	!	!	!	!	!	!
2GG/	.	.	2b-/	.	2dd\	8.GG/	-ta-	8.B-\	-ta-	8.g\	-ta-
.	.	.	.	.	.	16GG/	-bi-	16c\	-bi-	16g\	-bi-
.	.	.	.	.	.	8GG/	-tur	8.d\	-tur	8g\	-tur
*	*	*	*	*	*	*	*Xij	*	*Xij	*	*Xij
!	!	!	!	!	!	!LO:TX:t=P:problem:kreska pseudotaktowa	!	!	!	!	!
.	.	.	.	.	.	8GG/	cor	.	.	8f\	cor
.	.	.	.	.	.	.	.	16d\	cor	.	.
!	!	!	!	!	!	!LO:TX:t=P:problem:kreska pseudotaktowa	!	!	!	!	!
2AA/	4	.	2a/	.	4r	2AA/	no-	4.d\	no-	2e\	no-
.	.	.	.	.	4aa\	.	.	.	.	.	.
.	3	.	.	.	.	.	.	(8c#X\	-strum	.	.
2D/	#	.	4.a/	.	4.ff#X\	4.D/	-stru(m)	4.d\)	.	4.f#X\	-stru(m)
!	!	!	!	!	!LO:TX:t=P:problem:kreska pseudotaktowa dopisana ołówkiem	!LO:TX:t=P:problem:kreska pseudotaktowa	!	!	!	!	!
.	.	.	8a/	.	8dd\	8D/	lae-	8d\	lae-	8f#\	lae-
=62-	=62-	=62-	=62-	=62-	=62-	=62-	=62-	=62-	=62-	=62-	=62-
2G\	.	.	2b-/	.	1dd	4.G\	-ta-	4.B-\	-ta	4.g\	-ta-
.	.	.	.	.	.	8G\	-bi-	8B-\	-bi-	8g\	-bi-
2F#X\	6	.	2dd\	.	.	4.F#X\	-tur	4.A/	-tur	4a\	-tur
.	.	.	.	.	.	.	.	.	.	4a\	cor
.	.	.	.	.	.	8F#\	cor	8A/	cor	.	.
1G	.	.	1b-	.	[1dd;l	1G	no-	1B-	no-	1g	no-
=63-	=63-	=63-	=63-	=63-	=63-	=63-	=63-	=63-	=63-	=63-	=63-
!	!	!	!	!	!	!LO:TX:a:t=verte	!	!	!	!	!
!	!	!	!	!	!	!LO:TX:t=P:problem:pojedyncza kreska taktowa	!	!	!	!	!
0D;	.	.	0dd;	.	0dd]	0D;l	-strum	0A;;l	-strum	0f#Xl	-strum
!LO:LB:g=original	!	!	!LO:LB:g=original	!	!LO:LB:g=original	!LO:PB:g=original	!	!LO:LB:g=original	!	!LO:LB:g=original	!
=64||-	=64||-	=64||-	=64||-	=64||-	=64||-	=64||-	=64||-	=64||-	=64||-	=64||-	=64||-
*M3/2	*	*	*M3/2	*	*M3/2	*M3/2	*	*M3/2	*	*M3/2	*
*	*	*	*	*	*	*	*	*	*	*2\right	*
!LO:TX:b:t=Exurge Domine	!	!	!	!	!	!	!	!	!	!	!
!LO:TX:a:t=alto solo.	!	!	!	!	!	!	!	!LO:TX:a:t=5.	!	!	!
2D/	#	.	00.r	.	00.r	00.r	.	00.r	.	2a\	E-
2GG/	.	.	.	.	.	.	.	.	.	2b-\	-xur-
2C/	.	.	.	.	.	.	.	.	.	2g\	-ge
1.FF	.	.	.	.	.	.	.	.	.	2.a\	Do-
.	.	.	.	.	.	.	.	.	.	4a\	-mi-
.	.	.	.	.	.	.	.	.	.	2a\	-ne
=65-	=65-	=65-	=65-	=65-	=65-	=65-	=65-	=65-	=65-	=65-	=65-
*	*	*	*	*	*	*	*	*	*	*	*ij
2GG/	.	.	.	.	.	.	.	.	.	2g\	E-
2AA/	.	.	.	.	.	.	.	.	.	2.fny\	-xur-
!LO:N:acc=#	!	!	!	!	!	!	!	!	!	!	!
2BBn/	.	.	.	.	.	.	.	.	.	.	.
.	.	.	.	.	.	.	.	.	.	4f\	-ge
2.C/	.	.	.	.	.	.	.	.	.	2.e\	Do-
4D/	.	.	.	.	.	.	.	.	.	4f\	-mi-
2E\	.	.	.	.	.	.	.	.	.	2g\	-ne
*	*	*	*	*	*	*	*	*	*	*	*Xij
=66-	=66-	=66-	=66-	=66-	=66-	=66-	=66-	=66-	=66-	=66-	=66-
!	!	!	!LO:TX:t=P:problem:kreska pseudotaktowa	!	!LO:TX:t=P:problem:kreska pseudotaktowa	!	!	!	!	!	!
2Fny\	.	.	1.r	.	1.r	1.r	.	1.r	.	2a\	e-
1G	4	.	.	.	.	.	.	.	.	1d	-xur-
.	3	.	.	.	.	.	.	.	.	.	.
=67-	=67-	=67-	=67-	=67-	=67-	=67-	=67-	=67-	=67-	=67-	=67-
*M2/1	*	*	*M2/1	*	*M2/1	*M2/1	*	*M2/1	*	*M2/1	*
*met(c)	*	*	*met(c)	*	*met(c)	*met(c)	*	*met(c)	*	*met(c)	*
!LO:TX:b:t=adagio	!	!	!	!	!	!	!	!LO:TX:a:t=3	!	!	!
1C	.	.	0r	.	0r	0r	.	0r	.	2c/	-ge
.	.	.	.	.	.	.	.	.	.	8r	.
!	!	!	!	!	!	!	!	!	!	!LO:TX:a:t=adagio	!
.	.	.	.	.	.	.	.	.	.	8e\	in
.	.	.	.	.	.	.	.	.	.	8e\	ad-
!	!	!	!	!	!	!	!	!	!	!LO:TX:t=P:problem:kreska pseudotaktowa	!
.	.	.	.	.	.	.	.	.	.	8f\	-iu-
1AA	6	.	.	.	.	.	.	.	.	8.f\	-to-
.	.	.	.	.	.	.	.	.	.	16f\	-ri-
.	.	.	.	.	.	.	.	.	.	4f\	-um
.	.	.	.	.	.	.	.	.	.	8r	.
.	.	.	.	.	.	.	.	.	.	8a\	in
.	.	.	.	.	.	.	.	.	.	8.a\	ad-
!	!	!	!	!	!	!	!	!	!	!LO:SIC:v:t=custos b-	!
.	.	.	.	.	.	.	.	.	.	16a\	-iu-
!	!	!	!	!	!	!	!	!	!	!LO:LB:g=original	!
=68-	=68-	=68-	=68-	=68-	=68-	=68-	=68-	=68-	=68-	=68-	=68-
!	!	!	!LO:TX:t=P:problem:kreska pseudotaktowa	!	!LO:TX:t=P:problem:kreska pseudotaktowa	!LO:TX:t=P:problem:kreska pseudotaktowa	!	!	!	!	!
2GG/	.	.	1r	.	1r	1r	.	1r	.	4b-X\	-to-
.	.	.	.	.	.	.	.	.	.	8g\	-ri-
.	.	.	.	.	.	.	.	.	.	8f\	-um
2AA/	4	.	.	.	.	.	.	.	.	2e\	no-
.	3	.	.	.	.	.	.	.	.	.	.
=69-	=69-	=69-	=69-	=69-	=69-	=69-	=69-	=69-	=69-	=69-	=69-
*M3/2	*	*	*M3/2	*	*M3/2	*M3/2	*	*M3/2	*	*M3/2	*
!LO:TX:a:t=Ten&colon; solo	!	!	!	!	!	!	!	!	!	!	!
2D/	.	.	0.r	.	0.r	0.r	.	2f\	Ex-	2d\	-strum
2E-X\	.	.	.	.	.	.	.	2e-X\	-ur-	2r	.
2F\	.	.	.	.	.	.	.	2cny\	-ge	2r	.
1.BB-y	.	.	.	.	.	.	.	2.d\	Do-	0.r	.
.	.	.	.	.	.	.	.	4d\	-mi-	.	.
.	.	.	.	.	.	.	.	2d\	-ne	.	.
=70-	=70-	=70-	=70-	=70-	=70-	=70-	=70-	=70-	=70-	=70-	=70-
!	!	!	!LO:TX:t=P:problem:kreska pseudotaktowa	!	!	!	!	!	!	!	!
2C/	.	.	1.r	.	1.r	1.r	.	2c\	e-	.	.
2D/	.	.	.	.	.	.	.	(2.B-\	-xur-	.	.
2Eny\	6	.	.	.	.	.	.	.	.	.	.
.	.	.	.	.	.	.	.	4A/)	.	.	.
=71-	=71-	=71-	=71-	=71-	=71-	=71-	=71-	=71-	=71-	=71-	=71-
*M2/1	*	*	*M2/1	*	*M2/1	*M2/1	*	*M2/1	*	*M2/1	*
*met(c)	*	*	*met(c)	*	*met(c)	*met(c)	*	*met(c)	*	*met(c)	*
!LO:TX:b:t=adagio	!	!	!	!	!	!LO:TX:t=P:problem:kreska pseudotaktowa	!	!	!	!	!
1F	.	.	0r	.	0r	0r	.	2A/	-ge	0r	.
.	.	.	.	.	.	.	.	8r	.	.	.
.	.	.	.	.	.	.	.	8c\	in	.	.
.	.	.	.	.	.	.	.	8c\	ad-	.	.
.	.	.	.	.	.	.	.	8c\	-iu-	.	.
2BB-/	.	.	.	.	.	.	.	4d\	-to-	.	.
.	.	.	.	.	.	.	.	8B-\	-ri-	.	.
.	.	.	.	.	.	.	.	8A/	-um	.	.
!	!	!	!	!	!	!	!	!LO:SIC:v:t=custos F	!	!	!
2C/	4	.	.	.	.	.	.	2G/	no-	.	.
.	3	.	.	.	.	.	.	.	.	.	.
!	!	!	!	!	!	!	!	!LO:LB:g=original	!	!	!
=72-	=72-	=72-	=72-	=72-	=72-	=72-	=72-	=72-	=72-	=72-	=72-
*M3/2	*	*	*M3/2	*	*M3/2	*M3/2	*	*M3/2	*	*M3/2	*
2FF/	.	.	00.r	.	00.r	(4FF/	Ex-	2Fny/	-strum.	00.r	.
.	.	.	.	.	.	4GG/)	.	.	.	.	.
!LO:TX:b:t=Basso solo	!	!	!	!	!	!	!	!	!	!	!
2AA/	6	.	.	.	.	(4AA/	-ur-	2r	.	.	.
.	.	.	.	.	.	4BB-/)	.	.	.	.	.
!	!	!	!	!	!	!LO:TX:t=P:problem:kreska pseudotaktowa	!	!	!	!	!
2C/	.	.	.	.	.	2C/	-ge	2r	.	.	.
!	!	!	!	!	!	!	!	!LO:TX:a:t=3	!	!	!
1.F	.	.	.	.	.	2.FF/	Do-	0.r	.	.	.
.	.	.	.	.	.	4FF/	-mi-	.	.	.	.
!	!	!	!	!	!	!LO:TX:t=P:problem:kreska pseudotaktowa	!	!	!	!	!
.	.	.	.	.	.	2FF/	-ne	.	.	.	.
=73-	=73-	=73-	=73-	=73-	=73-	=73-	=73-	=73-	=73-	=73-	=73-
*	*	*	*	*	*	*	*ij	*	*	*	*
2C/	.	.	.	.	.	(4C/	E-	.	.	.	.
.	.	.	.	.	.	4D/)	.	.	.	.	.
2E\	.	.	.	.	.	(4E\	-xur-	.	.	.	.
.	.	.	.	.	.	4Fny\)	.	.	.	.	.
2G\	.	.	.	.	.	(<4G\	-ge	.	.	.	.
.	.	.	.	.	.	4GG/)	.	.	.	.	.
1.C	.	.	.	.	.	2.C/	Do-	1.r	.	.	.
.	.	.	.	.	.	4C/	-mi-	.	.	.	.
.	.	.	.	.	.	2C/	-ne	.	.	.	.
*	*	*	*	*	*	*	*Xij	*	*	*	*
!LO:PB:g=original	!	!	!	!	!	!	!	!	!	!	!
=74-	=74-	=74-	=74-	=74-	=74-	=74-	=74-	=74-	=74-	=74-	=74-
*M2/1	*	*	*M2/1	*	*M2/1	*M2/1	*	*M2/1	*	*M2/1	*
*met(c)	*	*	*met(c)	*	*met(c)	*met(c)	*	*met(c)	*	*met(c)	*
!LO:TX:b:t=adagio	!	!	!	!	!	!	!	!LO:TX:a:t=12	!	!	!
2AA/	6	.	1r	.	1r	8r	.	00r	.	00r	.
.	.	.	.	.	.	8AA/	in	.	.	.	.
.	.	.	.	.	.	8AA/	ad-	.	.	.	.
.	.	.	.	.	.	8AA/	-iu-	.	.	.	.
4BB-/	.	.	.	.	.	4BB-/	-to-	.	.	.	.
4GG/	.	.	.	.	.	8GG/	-ri-	.	.	.	.
!	!	!	!	!	!	!LO:SIC:v:t=custos AA	!	!	!	!	!
.	.	.	.	.	.	8GG/	-um	.	.	.	.
!	!	!	!	!	!	!LO:LB:g=original	!	!	!	!	!
2AA/	x 4	.	2r	.	8r	2AA/	no-	.	.	.	.
.	- 3	.	.	.	8aa\L	.	.	.	.	.	.
.	.	.	.	.	8ee\	.	.	.	.	.	.
.	.	.	.	.	8gg\J	.	.	.	.	.	.
!	!	!	!LO:TX:b:t=adagio.	!	!	!	!	!	!	!	!
2D/	#	.	8r	.	4ffny\	4DD/	-stru(m)	.	.	.	.
.	.	.	8dd\L	.	.	.	.	.	.	.	.
!	!	!	!	!	!LO:TX:t=P:problem:cezura dopisana ołówkiem	!	!	!	!	!	!
.	.	.	8a\	.	4ff#X,\	4r	.	.	.	.	.
!	!	!	!LO:TX:t=P:problem:kreska pseudotaktowa	!	!	!	!	!	!	!	!
.	.	.	8cc\J	.	.	.	.	.	.	.	.
=75-	=75-	=75-	=75-	=75-	=75-	=75-	=75-	=75-	=75-	=75-	=75-
4G\	-	.	4b-X/	.	4.gg\	00r	.	.	.	.	.
!	!	!	!LO:N:acc=#	!	!	!	!	!	!	!	!
4D/	# 4	.	4bn/	.	.	.	.	.	.	.	.
.	6 3	.	.	.	8ffny\	.	.	.	.	.	.
4C/	x -	.	4.cc\	.	4ee-X\	.	.	.	.	.	.
!	!	!	!	!	!LO:TX:t=P:problem:cezura dopisana ołówkiem	!	!	!	!	!	!
!	!	!	!	!	!LO:N:acc=#	!	!	!	!	!	!
4GG/	# 6	.	.	.	4een,\	.	.	.	.	.	.
!	!	!	!LO:TX:t=P:problem:kreska pseudotaktowa	!	!	!	!	!	!	!	!
.	.	.	8b/	.	.	.	.	.	.	.	.
2FF/	5	.	8a/L	.	[2ff\	.	.	.	.	.	.
.	.	.	8a/J	.	.	.	.	.	.	.	.
.	6	.	8dd\L	.	.	.	.	.	.	.	.
.	.	.	8cc\J	.	.	.	.	.	.	.	.
!	!	!	!LO:N:acc=#	!	!	!	!	!	!	!	!
4GG/	7	.	4bn/	.	8ff\L]	.	.	.	.	.	.
.	.	.	.	.	8ee-X\J	.	.	.	.	.	.
!	!	!	!	!	!LO:TX:t=P:problem:cezura dopisana ołówkiem	!	!	!	!	!	!
4AA-X/	6	.	2cc\	.	4ee-,\	.	.	.	.	.	.
=76-	=76-	=76-	=76-	=76-	=76-	=76-	=76-	=76-	=76-	=76-	=76-
4FF/	.	.	.	.	4.dd\	.	.	00r	.	00r	.
!	!	!	!LO:TX:b:t=P:problem:# below	!	!	!	!	!	!	!	!
!	!	!	!LO:N:acc=#	!	!	!	!	!	!	!	!
4GG/	.	.	4bn/	.	.	.	.	.	.	.	.
.	.	.	.	.	8dd\	.	.	.	.	.	.
2C/	#	.	8cc\	.	8eeny\L	.	.	.	.	.	.
.	.	.	4ee\	.	8gg\	.	.	.	.	.	.
.	.	.	.	.	8ccc\	.	.	.	.	.	.
!	!	!	!LO:TX:t=P:problem:kreska pseudotaktowa	!	!LO:TX:t=P:problem:cezura dopisana ołówkiem	!	!	!	!	!	!
.	.	.	8ee\	.	8bb-,\J	.	.	.	.	.	.
!	!	!	!LO:TX:t=P:problem:mixed beam	!	!	!	!	!	!	!	!
4F\	.	.	8ff\L	.	4aa\	.	.	.	.	.	.
.	.	.	8a/J	.	.	.	.	.	.	.	.
4F#X\	.	.	4a/	.	8dd\L	.	.	.	.	.	.
.	.	.	.	.	8cc\J	.	.	.	.	.	.
!	!	!	!	!	!LO:N:acc=#	!	!	!	!	!	!
4G\	#	.	4d/	.	8bn\L	.	.	.	.	.	.
.	.	.	.	.	8dd\	.	.	.	.	.	.
!	!	!	!LO:N:acc=#	!	!	!	!	!	!	!	!
4GG/	.	.	4bn/	.	8gg\	.	.	.	.	.	.
!	!	!	!	!	!LO:TX:t=P:problem:cezura dopisana ołówkiem	!	!	!	!	!	!
.	.	.	.	.	8ff,\J	.	.	.	.	.	.
=77-	=77-	=77-	=77-	=77-	=77-	=77-	=77-	=77-	=77-	=77-	=77-
4C/	.	.	4.cc\	.	8ee\L	00r	.	.	.	.	.
.	.	.	.	.	8cc\J	.	.	.	.	.	.
4AAny/	6	.	.	.	2ff\	.	.	.	.	.	.
.	.	.	8cc\	.	.	.	.	.	.	.	.
4BB-/	.	.	4b-y/	.	.	.	.	.	.	.	.
!	!	!	!	!	!LO:TX:t=P:problem:cezura dopisana ołówkiem	!	!	!	!	!	!
4C/	.	.	4g/	.	4ee,\	.	.	.	.	.	.
4.Fny\	5	.	8a\L	.	4ff\	.	.	.	.	.	.
.	.	.	8cc\	.	.	.	.	.	.	.	.
.	.	.	8dd\	.	4r	.	.	.	.	.	.
!	!	!	!LO:SIC:v:t=custos b-	!	!	!	!	!	!	!	!
8F\	6	.	8a\J	.	.	.	.	.	.	.	.
!	!	!	!LO:LB:g=original	!	!	!	!	!	!	!	!
8G\L	.	.	8b-/L	.	4r	.	.	.	.	.	.
8F\	.	.	8a/	.	.	.	.	.	.	.	.
8G\	.	.	8b-/	.	8r	.	.	.	.	.	.
!	!	!	!	!	!LO:TX:t=P:problem:cezura dopisana ołówkiem	!	!	!	!	!	!
!	!	!	!LO:TX:t=P:problem:kreska pseudotaktowa	!	!LO:SIC:v:t=custos gg	!	!	!	!	!	!
8D\J	.	.	8f/J	.	8ff,\	.	.	.	.	.	.
!	!	!	!	!	!LO:LB:g=original	!	!	!	!	!	!
=78-	=78-	=78-	=78-	=78-	=78-	=78-	=78-	=78-	=78-	=78-	=78-
!	!	!	!LO:TX:a:t=P:problem:♭ above	!	!	!	!	!	!	!	!
4E-X\	.	.	8e-/L	.	8gg\L	.	.	00r	.	00r	.
.	.	.	8g/	.	8cc\J	.	.	.	.	.	.
!LO:TX:a:t=P:problem:# above	!	!	!	!	!	!	!	!	!	!	!
!LO:N:acc=#	!	!	!	!	!	!	!	!	!	!	!
4EEn/	.	.	8g/	.	8.cc\L	.	.	.	.	.	.
.	.	.	8cc/J	.	.	.	.	.	.	.	.
.	.	.	.	.	16b-y\Jk	.	.	.	.	.	.
2FF/	5	.	4cc\	.	4a/	.	.	.	.	.	.
!	!	!	!	!	!LO:TX:t=P:problem:cezura dopisana ołówkiem	!	!	!	!	!	!
.	6	.	2dd\	.	4ff,\	.	.	.	.	.	.
4GG/	6 5	.	.	.	4.ee-X\	.	.	.	.	.	.
4AA/	.	.	2cc\	.	.	.	.	.	.	.	.
.	.	.	.	.	8ee-\	.	.	.	.	.	.
4BB-/	9	.	.	.	4.dd\	.	.	.	.	.	.
4D/	6	.	2b-/	.	.	.	.	.	.	.	.
!	!	!	!	!	!LO:TX:t=P:problem:cezura dopisana ołówkiem	!	!	!	!	!	!
.	.	.	.	.	8dd,\	.	.	.	.	.	.
=79-	=79-	=79-	=79-	=79-	=79-	=79-	=79-	=79-	=79-	=79-	=79-
!	!	!	!	!	!	!	!	!LO:TX:b:t=Si Replica\nalla +	!	!LO:TX:b:t=Si replica alla +	!
4E-X\	6 5	.	.	.	4.cc\	0r	.	.	.	.	.
!LO:N:acc=#	!	!	!	!	!	!	!	!	!	!	!
4En\	.	.	4b-/	.	.	.	.	.	.	.	.
.	.	.	.	.	8cc\	.	.	.	.	.	.
!	!	!	!	!	!LO:TX:t=P:problem:cezura dopisana ołówkiem	!	!	!	!	!	!
2F\	5 4	.	4.b-/	.	2cc,\	.	.	.	.	.	.
.	x 3	.	8a/	.	.	.	.	.	.	.	.
!LO:TX:b:t=Si Replica alla Segno \n +	!	!	!LO:TX:b:t=Si Replica alla +	!	!LO:TX:b:t=Si Replica alla +	!LO:TX:b:t=Exurge ut Supra +	!	!	!	!	!
1BB-	.	.	1b-	.	1dd	.	.	.	.	.	.
==	==	==	==	==	==	==	==	==	==	==	==
*-	*-	*-	*-	*-	*-	*-	*-	*-	*-	*-	*-
!!!system-decoration: [(s1,s2,s3)][(s4,s5)]s6
!!!RDF**kern: < = below
!!!RDF**kern: l = terminal long
!!!ENC: Andrzej Gręziak
!!!END: 2021-01-27
!!!ENC: Marta Lawrence
!!!END: 2022-02-20
!!!YEC: Copyright 2022 Narodowy Instytut Fryderyka Chopina (https://polishscores.org)
!!!YEM: License CC-BY-4.0 (https://creativecommons.org/licenses/by/4.0)
